/* XPM */
static char *_9a469e8e70b457a967c14517ef603b0rE0qbgC85rb060R2[] = {
/* columns rows colors chars-per-pixel */
"64 64 249 2 ",
"   c #0E0F0E",
".  c #14120C",
"X  c #161716",
"o  c #2C120D",
"O  c #2E221B",
"+  c #161A24",
"@  c #0C1531",
"#  c #192322",
"$  c #1D232B",
"%  c #0B2E35",
"&  c #292828",
"*  c #382C25",
"=  c #37322E",
"-  c #252B37",
";  c #3D2432",
":  c #27323B",
">  c #3B3937",
",  c #4E0E0D",
"<  c #6C0E0F",
"1  c #750712",
"2  c #562910",
"3  c #6C2C08",
"4  c #601A29",
"5  c #512F2D",
"6  c #423C37",
"7  c #71332A",
"8  c #793738",
"9  c #094930",
"0  c #045738",
"q  c #7A4C12",
"w  c #665B1C",
"e  c #4F4735",
"r  c #714A33",
"t  c #0E1D49",
"y  c #131E43",
"u  c #18244A",
"i  c #0E2A52",
"p  c #2B3648",
"a  c #2F384F",
"s  c #132E6C",
"d  c #2A3763",
"f  c #651E56",
"g  c #73374B",
"h  c #08524D",
"j  c #334E4A",
"k  c #036946",
"l  c #03744D",
"z  c #156D52",
"x  c #047C56",
"c  c #2C6C56",
"v  c #344F6C",
"b  c #06697A",
"n  c #3D7C6A",
"m  c #474646",
"M  c #4E4E4E",
"N  c #575656",
"B  c #684E4C",
"V  c #665C54",
"C  c #71645B",
"Z  c #535967",
"A  c #596160",
"S  c #5B6F70",
"D  c #676869",
"F  c #746964",
"G  c #6C766C",
"H  c #696C74",
"J  c #697476",
"K  c #787879",
"L  c #870615",
"P  c #8B0B10",
"I  c #980618",
"U  c #A7051A",
"Y  c #B4041C",
"T  c #8D2E0C",
"R  c #A93313",
"E  c #891C28",
"W  c #961525",
"Q  c #B70A23",
"!  c #AF142A",
"~  c #8F2D34",
"^  c #AF3030",
"/  c #C7011B",
"(  c #C90724",
")  c #D80827",
"_  c #CA122A",
"`  c #D61B35",
"'  c #E60327",
"]  c #F2042B",
"[  c #F21139",
"{  c #8E4D0B",
"}  c #995A16",
"|  c #A95707",
" . c #A55710",
".. c #986411",
"X. c #B06D11",
"o. c #874C27",
"O. c #B34C33",
"+. c #946A2F",
"@. c #B1752E",
"#. c #8E3347",
"$. c #B13649",
"%. c #F41E41",
"&. c #D2384A",
"*. c #EF2C49",
"=. c #904E4F",
"-. c #B14F54",
";. c #8C6E51",
":. c #AC754A",
">. c #965B64",
",. c #B25A6B",
"<. c #8E716C",
"1. c #997875",
"2. c #AD6D70",
"3. c #CA4E52",
"4. c #E94C5A",
"5. c #C36156",
"6. c #CE546D",
"7. c #D36E75",
"8. c #EB6D78",
"9. c #01845B",
"0. c #03845B",
"q. c #1A8559",
"w. c #058A63",
"e. c #02966B",
"r. c #13926A",
"t. c #1A9670",
"y. c #678A78",
"u. c #B18912",
"i. c #B88A30",
"p. c #C98705",
"a. c #D79908",
"s. c #D38D12",
"d. c #E4970D",
"f. c #D8A512",
"g. c #E6A905",
"h. c #E8B809",
"j. c #EBB712",
"k. c #CD932F",
"l. c #C99536",
"z. c #DAA23A",
"x. c #F4B231",
"c. c #F7C906",
"v. c #FBD605",
"b. c #F5CE15",
"n. c #F1CB2A",
"m. c #B5864B",
"M. c #928278",
"N. c #B29072",
"B. c #C99746",
"V. c #CC9251",
"C. c #D4A851",
"Z. c #D6A959",
"A. c #E4AF43",
"S. c #E6B759",
"D. c #CE966D",
"F. c #D2AE68",
"G. c #E7BD6A",
"H. c #F5C850",
"J. c #ECC26A",
"K. c #F3CC72",
"L. c #F3CB74",
"P. c #113286",
"I. c #197584",
"U. c #546C87",
"Y. c #6F768B",
"T. c #687988",
"R. c #667FAC",
"E. c #8B7C82",
"W. c #B67E83",
"Q. c #E35581",
"!. c #D47284",
"~. c #EF748E",
"^. c #75818A",
"/. c #6B8698",
"(. c #798998",
"). c #7790A9",
"_. c #878688",
"`. c #948986",
"'. c #888994",
"]. c #919292",
"[. c #969798",
"{. c #AD9592",
"}. c #A3A39F",
"|. c #B4A394",
" X c #8898A6",
".X c #8693AF",
"XX c #969BA3",
"oX c #97A2A8",
"OX c #94A8B8",
"+X c #A7A7A9",
"@X c #B5AAA9",
"#X c #B4B0AF",
"$X c #A8ACB4",
"%X c #ABB4B9",
"&X c #B7B6B8",
"*X c #CD8B8E",
"=X c #EC8A93",
"-X c #D4B391",
";X c #E2BB97",
":X c #F599A3",
">X c #C4B8B8",
",X c #D1B0B2",
"<X c #F3A9B1",
"1X c #A9C6BA",
"2X c #F5D28B",
"3X c #CAC7BE",
"4X c #EACBA6",
"5X c #859DC1",
"6X c #95ACCA",
"7X c #9CB2C2",
"8X c #A7B9C9",
"9X c #B5BCC3",
"0X c #A4BBD5",
"qX c #DABAC1",
"wX c #BCC5CB",
"eX c #AFC3D2",
"rX c #B8C9D6",
"tX c #BDD1DE",
"yX c #BFD3E0",
"uX c #C8C7C9",
"iX c #D5CBC9",
"pX c #C4CBD2",
"aX c #D1CAD1",
"sX c #C7D1D9",
"dX c #D4D4D5",
"fX c #D9D8D6",
"gX c #D7D7DA",
"hX c #DCDCDB",
"jX c #EDCCCD",
"kX c #E6D9D9",
"lX c #E1E1DF",
"zX c #F0E5DC",
"xX c #C3D5E1",
"cX c #CBDBE5",
"vX c #D8DCE3",
"bX c #DEE0E2",
"nX c #E4E4E4",
"mX c #E8E7E7",
"MX c #ECECEC",
"NX c #F6E4E5",
"BX c #F1EEED",
"VX c #F1F0EF",
"CX c #ECEDF1",
"ZX c #EFF0F2",
"AX c #F4F4F4",
"SX c #F9F7F6",
"DX c #F9F9F8",
"FX c #FBFBFB",
"GX c #FDFDFD",
/* pixels */
"DXDXDXGXGXDXDXDXGXGXDXSXSXAXDXSXSXDXAXAXVXSXAXSXAXAXAXSXSXAXSXSXAXAXAXAXMXMXMXAXMXAXSXAXSXSXDXDXAXAXSXDXDXDXDXDXDXMXMXMXAXAXZXhX",
"DXDXDXGXGXDXDXSXGXGXGXGXDXDXGXGXGXDXBXSXDXSXSXAXAXMXMXAXSXDXDXDXSXSXSXSXSXMXMXSXAXMXDXDXDXSXMXMXAXSXDXGXGXDXGXGXGXSXSXSXMXMXMXAX",
"SXDXDXGXGXDXDXSXDXDXGXGXDXGXDXDXDXAXAXAXSXVXAXSXSXSXSXSXAXAXSXDXDXSXSXAXAXAXMXAXSXSXDXDXSXSXAXAXSXDXGXDXDXSXGXGXGXSXMXMXmXnXMXAX",
"DXSXAXAXAXAXDXSXDXSXDXDXDXGXGXDXSXAXMXMXBXMXAXSXAXSXAXBXjXjXkXNXNXDXDXSXSXMXAXAXAXMXAXSXGXSXSXDXGXGXDXDXSXSXDXDXMXmXMXMXMXmXMXAX",
"DXSXAXAXDXDXGXDXGXSXDXSXAXSXGXDXSXAXAXnXMXBXMXAXMXAXAX*XI ) %.%.] 4.=X<XBXMXAXSXMXmXAXDXDXDXDXGXDXDXDXSXAXAXMXMXMXMXMXMXMXMXMXAX",
"SXSXSXSXSXDXGXDXDXAXSXSXMXMXSXDXAXMXSXnXnXAXMXnXMXBXAX^ ) I Y [ *.] ' [ 8.jXAXAXAXSXMXSXGXGXGXGXDXDXSXAXMXMXSXDXDXMXMXMXAXAXSXDX",
"SXDXDXGXGXGXGXGXSXDXDXDXSXnXmXAXMXVXVXVXBXAXMXMXMXiX*X! U ( I 1 ) *.' ' ' *.~.:XMXMXSXDXGXGXGXDXDXAXMXSXSXSXDXDXSXZXAXSXAXSXSXSX",
"SXDXDXGXGXGXGXDXSXDXGXDXSXlXhXnXhXkXAXBXmXmXzX:X~.*._ Y ) ' Y Y < Y %.] / ` ` _ iXGXDXGXGXGXDXSXAXAXSXSXAXAXMXAXDXMXgXMXMXMXMXMX",
"GXGXGXGXGXGXDXDXDXDXDXAXMXmXnXfXhXfXhXnXhXiX4.4.L < L / Y ( ' U / U I [ ] ) *.E I jXGXGXGXGXAXSXSXSXMXMXSXSXDXDXGXMXmXmXhXhXdXhX",
"GXGXGXGXGXGXGXGXDXGXSXMXAXAXlXnXfXhXhXhXmX:X&.! W ! Q Q ( Q I ) Y Y Y ) [ ] ] ! Y &.8.:XNXAXMXnXnXMXSXDXDXDXGXGXDXMXMXMXMXnXmXMX",
"GXDXDXDXDXDXDXDXSXSXAXMXSXAXmXSXmXMXMXnXkX` &.I I Q Q I L I _ W I ( ) ! ' ] ] ) L L ` %.=XnXnXhXMXSXDXSXSXDXSXSXDXMXnXMXMXMXmXMX",
"GXGXGXGXGXGXGXDXDXSXDXDXGXGXDXDXAXAXSXSX|.W 1 W #.-.) ' Y |.>X2.Q Q ! , U I U 7.4.[ [ [ *.kXMXVXZXSXGXGXDXDXSXSXDXSXDXAXAXAXSXSX",
"GXGXGXGXGXGXGXDXDXDXGXGXGXDXDXSXSXSXzX:X4.&.~ >.{.,.,XjXmXSXhXbX>X2.Q ( U Q *XgXdX,XqX,XjXAXVXMXAXSXDXGXDXGXGXGXGXDXGXAXAXSXDXDX",
"GXGXGXGXGXGXDXSXSXSXDXDXDXSXSXSXSX,X~ E $.-.E.@XaXaXgXnXvXmXCXmXnXgX>X{.<.>X&X9XnXMXCX&X&XdXnXAXSXDXDXDXDXDXDXGXGXDXSXMXSXSXVXMX",
"DXDXDXDXDXSXDXDXDXSXSXSXMXAXDXGXjXU L $.5 D K Y.'.&XuX>X@XiX&X`.].+X#X+X$X9XnXCXnXCXAXCXK +XdXMXSXDXDXDXGXDXDXGXGXSXAXAXAXnXVXMX",
"GXGXGXDXDXDXDXDXDXDXSXAXSXGXGXGX8.` $._.(.S (. XY.D 6 * * e 5 B C ;.{.&XpXuXvXvXvXuXdXpXpXdXuX&XbXDXDXAXGXAXMXDXDXSXMXAXAXlXVXMX",
"GXGXGXGXDXDXDXDXDXDXSXSXDXDXDXGX^ W {.J a A > . . m N = O & e B 2 5 r <.`.M.>XvXgX1.=.B = F _.wX%XgXDXAXSXAXMXMXSXDXAXMXAXnXMXAX",
"DXGXGXDXDXDXSXSXSXDXDXGXGXGXGXGX,X1.H N e = & : j J H H M = 6 e O 5 +.V.D.-.-.gXuX=.-.8 , 6 B +XwXwXnXGXGXGXMXnXnXMXnXVXAXMXMXMX",
"GXDXSXSXSXSXDXSXDXDXGXGXGXGXGXGXDX].D 6 * 6 J '. X.X[.N.l.k.i.z.@.@.-.~ ~ $.=.<.&X>.7.*X2.>.o m F +XwXDXDXSXMXnXnXhXlXhXMXMXhXhX",
"SXSXDXDXDXGXGXGXGXGXGXGXGXGXGXGXDXMX+X7 4 +.X.<.Y.+.x.x.x.x.d.5.,.#.$X^.$XH _.`.8 >.-.7.7.=.o o ;.@XK dXSXMXAXmXnXdXdXfXhXlXmXmX",
"GXGXGXGXGXGXGXGXGXGXGXGXGXDXGXGXDXGXGXAX@XV.X.X.z.A.x.x.d.d.{ >.1.wXcXcXcXcXcXeXXXM * 8 r | 2 3 2 hX}.+XMXMXDXMXmXMXhXnXhXfXMXSX",
"DXDXDXDXDXDXAXAXAXSXSXSXAXAXAXAXAXAXMX9X#X:.} 2 3 k.x.s.s.N.$X9XcXcXxXcXcXcXcX8X8X$X[.+X&X@X:.|  .iXmXdXSXSXSXAXSXMXnXMXMXMXMXMX",
"SXDXDXSXDXDXAXAXAXAXAXSXSXDXSXSXAX9XXXoX].D r 7 3 , s.k.|.sXxXcXxXyXxXrXxXxXcX9XXX$X&X&X&XiXdX1.iXDXDXDXDXDXDXSXDXAXAXMXAXAXVXMX",
"DXDXDXGXDXSXSXAXSXAXAXSXAXDXDXDXvXrX%X9XoXH :.+.T 2 o.pXcXxXtXrXyXxXxXtXxXcXcXeXY.Z & A J J [.&XDXSXSXDXDXGXGXGXDXAXSXMXmXnXMXSX",
"DXMXMXDXDXAXSXAXSXAXAXMXMXMXSXSX9X8XrX%XoX$X`.B o.} #XsXeXOXOXOX).OX0XeXtXtX8X8X6X0X7XT.9 c n %XMXSXSXSXSXSXAXAXSXAXmXMXmXmXMXSX",
"mXMXAXAXDXSXDXSXAXAXAXMXAXSXAXVXOXOX XoXoX%XwXpX[. X).T.U.^.Y./.v T.xXeXtXwX(.T.v /.5X6XOX# # c 1XDXDXDXAXVXAXSXGXVXMXMXmXmXMXMX",
"dXmXAXSXDXDXDXAXMXAXAXAXAXSXMXsXOX(.D uXgXdXXXoX8X XT.T.T./.7X)./.(.8XtX8XJ   + - + + U.).OXq.l q.gXSXSXAXAXDXDXGXAXmXMXMXMXAXSX",
"mXnXMXMXMXMXDXAXMXMXAXVXSXMXsXrX XN +X>XvXdX#X'. X XS )./.OXeX8XOXOX XeXD X X p a a p $ U.R..X/./.cXDXDXSXDXGXGXGXSXDXAXSXSXSXAX",
"mXmXAXMXnXmXAXAXAXAXMXMXAXsX%XoX[.dXhX3X1.#XuX#X_.F <.T.).OXY.D D & M m - $ p $ v v v a - Z T.).6X6X8XZXGXGXGXGXGXAXnXAXAXMXAXAX",
"MXAXAXMXMXSXGXSXAXVXAXSXSXSX[.&XgXhXhXiX|.{.,X|.,XuX3XT.oXm V G D &     : a p -   + - a - X   a Y..X0XCXGXGXGXGXGXMXnXMXMXnXhXhX",
"AXSXMXMXSXGXGXSXAXAXAXAXAXnX+X>X#X|.|.N.>.< =.2.,.,.2.1.F > F V m - X   - a a $     $ p B g + X   & H jXNXGXGXGXGXMXAXMXmXhXvXmX",
"MXMXmXMXSXDXDXAXSXSXAXMXMXgX[.=.<.>.>.,.7.=X<X<X<X<X:X7.-.=.8 o X - $ X & & : $ $ $ $ - #.6.,.g + X ,.~.~.NXDXDXDXMXnXmXmXmXmXMX",
"DXDXSXDXDXDXDXDXDXSXSXDXDX+XW.7 < E W ^ 7.:X!.-.$.&.3.-.^ E 1 , o . X . & - : p p : ; 8 $.6.6.!.g 4 Q.!.~.qXAXVXAXVXMXMXMXMXMXMX",
"GXGXGXGXGXGXGXGXSXSXDXGXSX=X8.^ W < =.*X8.6.P U P 1 L ^ @.@.O.1 , . .   X p a p $ & 6 m 4 #.,.#.,.`.4 E 6.,XDXDXDXDXDXSXSXAXAXMX",
"DXGXGXGXGXGXDXDXSXSXDXDXNX:X=X7.-.7.=X7.3.~ }  .@.+.m.B.C.S.J.L.G.F.;.e * & X X . X O = m m 5 4 -.SXkX,X,XkXAXAXDXDXDXDXSXSXAXMX",
"GXGXGXGXDXSXDXSXSXDXSXSXjX7.!.=X=X8.6.3.4 { @.i.B.l.B.B.B.S.S.J.J.L.G.F.S.B.3 . X & . . O m = N N +XnXAXAXmXMXAXVXSXSXDXSXSXAXMX",
"SXDXDXDXDXDXGXGXDXDXAXAXrXI.I.I.v 6 #., X +.l.@.B.L.J.S.k. .@.k.z.} { { X.X.X.B.Z.F.F.N.X O m m > A K [.MXAXSXSXAXAXSXSXSXAXAXMX",
"GXGXGXGXDXSXDXDXSXSXAXAXoXb b b b b h h h : G.G.B.X.A.A.k.B.S.i.{ 3 X.k.l.S.m.X.s.s.A.+.O & > M & 6 '.J &XAXAXSXSXSXSXSXSXSXSXAX",
"GXGXGXGXDXDXDXDXDXDXGXGX].% % % i i % % % + F.2XL.J.Z.F.L.L.L.L.C.} +.B.G.2X2XF.X.s.s.i.O > M & X 6 V D ].AXSXSXSXSXSXSXDXDXDXSX",
"DXDXDXSXSXSXSXSXSXSXSXdX_.> m = > N K _._.M.;.i.A.J.K.K.L.J.Z.M.%X>X`.`.{.Z.K.L.L.m.} r V C V V V F <.6 dXAXAXSXSXDXDXDXSXSXSXDX",
"SXSXDXSXDXGXGXGXGXGXMXK N N M N E.K N D H D a y e @.z.S.S.+.u P.s s D N.N.:.S.H.H.J.N.@X&X@X|.|.|.`.#X& mXSXSXSXSXSXSXDXDXSXSXSX",
"DXGXGXGXGXGXGXGXGXGXvXM M Z d d u y p d s s s s s t B @.{ @ y + O w u.+.q 2 } A.H.S.|.|.|.N.N.M.F +XgX&XAXAXAXAXAXAXAXSXDXSXSXSX",
"SXSXSXDXSXSXDXDXDX9Xs s s t   @   t d u @ t @ @ s P.P.P.s i V l.c.b.s.s.a...;.s.f.i.:.i.k.@.r ;.1.*X#X9XBXAXAXAXAXAXAXSXSXSXAXMX",
"AXMXMXAXMXMXMXZXAX+Xu @ y @ s s s u + +   + t t i #.f i y i.v.h.d. .g.v.b.h.h.j.f.u.h.v.v.v.j.{ ! _ 2.'.hXDXGXGXGXSXDXDXDXDXSXSX",
"MXMXAXSXAXAXAXAXAXgX% s u u y : :   1 L L , ; 4 ! ) Q U X.f.X.| | p.v.v.c.v.v.a.a.a.c.v.v.v.n.n.f.a.-X%XOXnXDXDXDXDXDXGXGXGXDXGX",
"AXAXSXAXAXAXSXAXDXMXd i @ + W ` *.) ( ' ( ' ) ( ( Y I } j.| 3 T | c.v.v.c.c.f.3 { a.h.p.h.h.b.H.b.b.S.<.>.O.5.BXDXAXDXDXDXGXDXGX",
"MXMXAXSXAXAXSXAXDXDXaX$XF ! Q Y ( ' ) ' ( ' ) ) Q < < a.d.{ { X.g.v.v.v.c.c.-X}.<.<.@.p.p.g.h.j.n.a.s.R ^ ^ T kXMXAXDXDXDXDXDXGX",
"SXDXDXDXDXSXSXAXGXGXGXGX<.! Q L Q U Y Y ) Y ) ( U , u.h.p.| 2 r m.c.c.v.v.c.{.9X%XH D q ..X.u.@.m. .T T R ^ < kXDXDXDXSXDXDXMXAX",
"DXSXDXAXAXAXAXAXDXGXGX#X5 4 L 1 L I 1 1 L I I U 1 B Z.j.s.X.e <.M.m.h.c.v.n._.%XwX9X$X%X%X+X@X&X>X< < < R O.=.jXGXSXDXSXAXDXMXmX",
"SXSXSXMXMXMXMXAXDXGXuXM Z =.I < L I 1 , X . , o 2 C.f.f.i.l x M F K F m.j.F.+X%X%X9X9XsXpXwXpX$XpX1.| p.g.D.SXSXAXAXSXGXDXGXSXlX",
"AXSXAXAXAXMXmXZXGXAX$X X%X XY.5 , 1 , 9 0 9 9 0 w f.f.u.q.e.e.t.G D V N M N ].+X$X%X$X%XwXwXXX$XpX-Xg.h.h.jXAXSXDXDXSXDXDXSXAXnX",
"AXSXSXAXZXMXMXMXGXpX XY.). XT.m o o o c x l l l l e e x e.e.0 e.c K K K N 6 m e m N H '.XXoX$X%X9X3Xh.c.c.4XSXGXGXSXDXGXDXAXAXMX",
"mXSXVXAXAXAXMXMXDX[. X'.T.Z p : & : : 9 0 9.9.9.x k l w.e.9.w.w.%XpXXX&XJ > & = > = m D > & H %X%X%XB.a.g.A.4XBXGXDXDXDXVXMXAXAX",
"MXMXAXMXAXSXSXAXMXH .X'.Z j p j z w.x 9.l k r.t.9.9.9.e.9.9.0 J %Xm H $XJ _.K N M m M m _.N = G [.$X:.@.V.;X-X4XAXDXSXSXAXAXDXSX",
"SXDXDXDXSXSXAXMX'.'.T.j # h c k 0.w.x 9.9.l z r.l 9.9.w.k 9.j  XD M $X%XA K $XoX$XoXN M M 5 r <.`.V.D.D.V.;X4X;XzXDXDXDXDXSXDXDX",
"DXDXDXSXAXMXAXbX_.E.M z w.x k 0 e.w.l k 9.x 0 0 x k 9.w.k 9.c oX^.9XwX+X'.N M $X[._.].].'.K 7 o.:.V.D.D.D.-XD.;XSXDXDXDXDXGXDXDX",
"AXSXDXSXSXSXDXAXuX%X%X$X+X[.N x x l l 0 z l k 0 9 k k x 9.x w.j oX&X[.N N m m G >X3X+X[.oX%XF q m.D.D.D.N.;XBXGXDXDXDXAXmXAXDXAX",
"MXSXDXDXSXGXGXGXDXDXSXAXAXSXMXhX9X%XwXdXnXfXuXuX&X#X%X].y.S y.oX#X}._.K K +X&X+X].#X+X&X+XfXSXnXkXAXGXGXGXGXGXGXGXDXMXnXAXAXSXSX",
"AXAXDXDXGXGXGXDXDXSXAXMXAXSXDXSXDXDXAXDXMXMXDXSXAXMXVXmXlXAXmXmXnXmXMXAXAXAXSXAXMXAXSXDXDXSXSXSXAXDXGXDXDXDXDXGXAXnXdXnXMXAXSXDX",
"mXMXGXGXGXDXDXDXAXAXAXAXDXDXDXSXSXDXSXDXSXMXMXVXAXMXAXAXMXVXVXMXMXSXAXSXSXSXDXSXSXSXDXDXAXMXMXAXVXSXGXDXDXDXDXDXMXdXnXnXMXMXMXMX",
"DXGXGXGXGXGXSXMXMXAXDXSXMXAXSXDXSXDXDXDXGXMXhXnXlXnXVXAXBXBXBXMXMXnXBXAXMXMXAXAXAXSXSXSXAXMXMXMXMXSXGXGXDXDXGXDXAXhXmXmXAXMXmXmX",
"DXGXGXGXSXAXSXSXSXMXSXAXSXSXDXDXDXGXDXSXMXMXnXlXhXhXhXmXnXdXfXmXmXlXMXMXnXdXdXhXAXAXAXAXAXAXAXMXMXSXDXDXDXDXDXAXMXnXMXMXAXMXMXSX",
"GXGXDXDXAXAXAXMXMXAXSXDXGXGXGXSXDXGXGXAXMXSXmXhXiXhXfXhXhXAXMXhXnXMXMXmXhXhXmXmXnXMXAXSXAXAXAXMXMXSXDXDXDXDXSXAXMXMXMXSXAXMXAXGX",
"DXMXmXnXnXdXdXMXDXGXGXGXGXGXGXDXDXSXVXMXVXSXmXBXMXnXMXnXhXAXAXfXhXnXmXMXmXMXMXMXnXhXmXAXAXAXAXZXMXSXGXDXDXDXAXAXMXAXMXMXMXMXDXGX"
};
