/* XPM */
static char *_0c69380c6a747b9b5684bc9243f999bwJO7UoX5N9H8867L[] = {
/* columns rows colors chars-per-pixel */
"64 64 224 2 ",
"   c #7E4B2E",
".  c #54485A",
"X  c #594C5D",
"o  c #694C4F",
"O  c #654D57",
"+  c #77585C",
"@  c #5C4F63",
"#  c #5E5164",
"$  c #4C5D7B",
"%  c #615264",
"&  c #6A5662",
"*  c #63556A",
"=  c #7A5F63",
"-  c #6B5D74",
";  c #786168",
":  c #696A78",
">  c #76657B",
",  c #89522C",
"<  c #955C37",
"1  c #A06636",
"2  c #86584B",
"3  c #834E5D",
"4  c #88575B",
"5  c #B8565B",
"6  c #956047",
"7  c #9E6543",
"8  c #88645C",
"9  c #986856",
"0  c #A56947",
"q  c #AC724D",
"w  c #B5764C",
"e  c #B6794E",
"r  c #B97A4D",
"t  c #A66F55",
"y  c #A97559",
"u  c #B17553",
"i  c #B67B52",
"p  c #BA7D53",
"a  c #B3795A",
"s  c #BC5C66",
"d  c #93746F",
"f  c #AA7864",
"g  c #B1726F",
"h  c #CD494D",
"j  c #D24A4E",
"k  c #C74F53",
"l  c #D24D51",
"z  c #D25256",
"x  c #CB6A5B",
"c  c #D35D61",
"v  c #CB6D72",
"b  c #D3787C",
"n  c #BD8156",
"m  c #BE835B",
"M  c #B9835D",
"N  c #BB8464",
"B  c #BA8665",
"V  c #B18674",
"C  c #C38658",
"Z  c #C1855C",
"A  c #D39357",
"S  c #E39E54",
"D  c #E9A45B",
"F  c #ECA65A",
"G  c #C38B63",
"H  c #C68C66",
"J  c #C69169",
"K  c #CB9268",
"L  c #D29465",
"P  c #D79964",
"I  c #D4966B",
"U  c #D6996D",
"Y  c #D89C6D",
"T  c #C08F73",
"R  c #C79676",
"E  c #CD9975",
"W  c #D59B72",
"Q  c #D99E73",
"!  c #D79F78",
"~  c #FF9969",
"^  c #F59E78",
"/  c #DBA176",
"(  c #D4A17C",
")  c #DCA47B",
"_  c #DEA87E",
"`  c #E6A766",
"'  c #F4AF64",
"]  c #E6AD76",
"[  c #FBA378",
"{  c #796984",
"}  c #63738C",
"|  c #85738A",
" . c #877592",
".. c #AE7B8D",
"X. c #B37687",
"o. c #AA7F93",
"O. c #588585",
"+. c #5C8B8B",
"@. c #5E9090",
"#. c #718F94",
"$. c #669898",
"%. c #659B9B",
"&. c #598FA9",
"*. c #5B92AC",
"=. c #5D96B2",
"-. c #5F98B4",
";. c #6595AD",
":. c #649CB7",
">. c #639EBA",
",. c #799CB1",
"<. c #65A1BE",
"1. c #79A2B9",
"2. c #67A4C2",
"3. c #6AA6C5",
"4. c #69A8C7",
"5. c #6DAAC8",
"6. c #78AAC5",
"7. c #7AAFCB",
"8. c #978488",
"9. c #89929B",
"0. c #A4889A",
"q. c #AA989A",
"w. c #B39490",
"e. c #8B99A6",
"r. c #9391A5",
"t. c #B198A1",
"y. c #81A5A7",
"u. c #9AA4AA",
"i. c #84A6BB",
"p. c #99A9B6",
"a. c #AFA7A8",
"s. c #B9A7AB",
"d. c #A6B2BA",
"f. c #B9B3BD",
"g. c #C3838B",
"h. c #CD8D91",
"j. c #D8A787",
"k. c #DEAA83",
"l. c #D0AA8D",
"z. c #C9A299",
"x. c #DCB095",
"c. c #DCB39A",
"v. c #E1AD85",
"b. c #E1AF89",
"n. c #E3B28C",
"m. c #E7AB91",
"M. c #E3B692",
"N. c #E7BC99",
"B. c #F8B294",
"V. c #CF9CA5",
"C. c #D29BA2",
"Z. c #C5A9A9",
"A. c #D2A4AC",
"S. c #D9B6A6",
"D. c #DDBAA5",
"F. c #C6A9B1",
"G. c #CCADB4",
"H. c #D1ADB5",
"J. c #CDBBB8",
"K. c #D2B7B2",
"L. c #D2B3BB",
"P. c #EFBDB2",
"I. c #EAC19F",
"U. c #DDC6BA",
"Y. c #E7C2A7",
"T. c #E3C7B5",
"R. c #F4C6B5",
"E. c #86B3CC",
"W. c #8BB2CA",
"Q. c #94B9CE",
"!. c #96BBD2",
"~. c #A6BACB",
"^. c #A9BFCD",
"/. c #C8BFC7",
"(. c #B8C7CE",
"). c #AAC4D5",
"_. c #B5C7D6",
"`. c #BDCDDC",
"'. c #BDD0DC",
"]. c #C6C4C8",
"[. c #D3C6C9",
"{. c #D1D0CE",
"}. c #C5CCD9",
"|. c #C6D1DF",
" X c #CBD1DC",
".X c #D5D5D4",
"XX c #DAD7D4",
"oX c #D9D9D7",
"OX c #D3D6DB",
"+X c #DDDCDB",
"@X c #E4CFC2",
"#X c #E5D4CB",
"$X c #E8D5CA",
"%X c #F5D8CD",
"&X c #E8DBD6",
"*X c #E1E1DF",
"=X c #EDE2DC",
"-X c #F0E2DA",
";X c #C5D3E2",
":X c #CAD6E4",
">X c #CCD9E5",
",X c #D2DBE6",
"<X c #D5DDE8",
"1X c #DCE3E9",
"2X c #E4E4E4",
"3X c #E9E7E4",
"4X c #EAE9E7",
"5X c #E1E7EA",
"6X c #E5EAED",
"7X c #ECECEC",
"8X c #F2E7E3",
"9X c #F1EEED",
"0X c #F1F0EF",
"qX c #EBE7F2",
"wX c #EBEEF1",
"eX c #EEF1F2",
"rX c #F4F4F4",
"tX c #F8F7F5",
"yX c #FAF9F7",
"uX c #F5F7F9",
"iX c #F9F9F8",
"pX c #FBFBFB",
"aX c gray99",
"sX c #FDFDFD",
/* pixels */
"iXiXsXsXsXiXiXiXsXsXiXtXrXrXtXrXiXtXrX0XtXtXtXtXrXrXrXtXrXrXtXrXrXrXrX7X7X7X7XrX7XtXrXtXtXiXiXtXtXtXiXiXiXiXiXiXrX7X4XeXrXrX2X3X",
"iXiXsXsXsXiXiXiXsXsXiXsXiXsXsXsXsXrX0XyXyXiXrXrXrX7XrXrXtXiXiXtXtXtXtXtXrX7XrXtX7XtXiXiXiXrX7XrXtXiXsXsXsXsXsXsXtXtXtX4X7X7XrXrX",
"tXiXiXsXiXiXtXtXiXiXsXsXiXsXiXsXiXrXrXrXtX9XtXtXtXrXtXtXrXrXtXiXiXtXtXrXrX7XrXtXtXiXiXuXtXrX7XtXiXsXsXiXtXiXsXsXtX7X3X4X2X4XrXtX",
"iXtXrXrXrXrXiXtXiXtXiXiXiXsXsXiXrX7X0X7X7X7XtXtXrXrXrX7X4XrXrXtXiXiXiXtXrX7XrXrXrX7XrXiXiXtXiXsXsXiXiXtXtXtXiXrX4X4X7X4X3X4XrXrX",
"iXtXrXrXiXiXsXiXsXtXsXtXrXiXiXiXrXrXrX2X0X7X0XrX7XrXrX7XrXtXrXeXrXtXrXrXrX7XrXrX3X4XtXiXiXiXsXsXsXiXtXrXrXrX7X7X7X4X7X7X4X7XrX7X",
"tXtXtXtXtXiXsXiXiXrXtXtX3X7XtXiX7X0XrX+X7X7X7X2X7X7XrX7XrXtXrXtXtXtXtXtXtXrXrXrXtX7XrXiXsXsXsXsXuXtXrXrX7XrXiXiXrX7X4XrXrXtXiXrX",
"tXiXiXsXsXsXsXiXtXiXiXsX0X2X4XrX7X0X9X0X0XrX7X4X4X7XeXrXrXrXtXtXtXtXuXtXtXtXtXrX7XrXiXsXsXsXsXiXrX7XrXtXtXiXiXtXeXrXtXrXtXtXtXrX",
"tXiXiXsXsXsXsXiXtXiXsXiXrX+X+X2XoX3X9X0X3X4X7XrXrXrXrXrXrXrXrXtXiXiXiXtXtXtXtXtXiXiXsXsXsXsXiXrXrXrXtXtXrX7XrXtX7XoX7XeX7X4X4X7X",
"sXsXsXsXsXiXiXiXiXiXiX7X0X2X2X.X+XoX+X2XoXoX2X4X7XrXrX7X,X5XiXtXtXiXtXtXuXtXyXtXiXsXsXsXsXrXtXtXiX7X4XtXtXiXiXiX7X3X3X2XoX.XoXoX",
"sXsXsXsXsXsXsXsXiXsXtX7XtX7X+X*XoX+X+XoX0XrX2X3XrXtX:X7.4.4.).4X8X-X%XP.B.R.R.0XiXiXsXrXrX7X2X2X3XrXiXiXiXsXsXiXrX4X7X7X2X3X4X7X",
"sXiXiXiXiXiXiXiXtXtX7X0XtX7X4XtX2X7X4X*X7XrX+X2X6XQ.-.>.4.4.4.i.m.~ ~ [ ~ [ [ [ 8XeX7X2X2X3X+X2XrXiXtXtXuXtXtXiXrX2X4X7X4X3X7X4X",
"sXsXsXsXsXsXsXiXtXiXiXsXsXsXiXiXrXrXrX_.!.Q.Q.E.5.3.2.>.3.4.4.4.5.a.^ [ ~ [ [ ~ B.9XrXrX7X7XrXeXrXiXsXiXiXtXtXiXtXyXtXrXrXtXtXiX",
"sXsXsXsXsXsXsXiXiXiXsXsXsXiXiXtXtXtX1X4.4.4.4.4.4.4.4.4.4.4.4.4.4.4.5.p.z.m.[ ~ [ R.3XrXtXrXrX7XtXiXsXiXsXsXsXsXsXsXtXrXtXiXiXtX",
"sXsXsXsXsXiXiXtXtXtXiXiXiXtXtXiXiXiX).4.4.4.4.4.4.4.4.4.4.4.4.4.4.4.3.3.4.5.p.s.Z.z.OX1X6XrXrXtXuXiXiXsXiXiXsXsXiXyX7XrXtX0X7XtX",
"iXiXiXiXiXiXiXiXiXtXtXrX7XrXiXsXiXuXQ.6.4.4.4.4.4.1.r.0.0.o.........o.r.3.<.4.4.4.7.;X:X:X<XrXtXtXiXiXiXsXiXsXsXiXrXtXrX3X9X7XtX",
"iXiXsXiXiXiXiXiXiXiXtXrXtXsXiX9XtX<X:X:X`.).).!.E.s j j j j j j j j j j 9.3.4.4.4._.:X:X:X:X~.7XtXiXtXiXtX4XiXiXyX7X0XrX2X0X4X7X",
"sXsXsXsXiXiXiXiXiXtXtXtXiXtXb l b :X:X:X:X:X:X:X:Xv j j l h.H.A.C.h.b l g 3.3.3.Q.:X:X:X:X;X;.i.7XiXtXtXtX4X7XtXiXrX7XrX3X4XrX7X",
"sXsXsXiXiXiXtXtXtXuXiXsXsXP.j j V.:X:X:X:X:X:X:X].h j z C.L.L.L.L.L.L.h.j ..3.5.`.:X:X:X:X).&.&.,.5XsXsXsXtX2X2X7X2X7XrX7X7X7X4X",
"sXiXtXtXtXtXiXtXiXiXsXsX8Xz h j b f.`.`.|.;X:X:Xg.j z V.L.L.L.L.L.L.L.A.j j X.6.`.;X:X:X:XW.&.&.&.;.,XiXtXrX3X2XoX*X+X4X7X+X+X4X",
"tXtXiXiXsXsXsXsXsXsXsX$Xc h h j j h k v g.g.w.g.h c A.L.L.L.G.F.F.F.t.| 4 5 j X.4.5.7.W.).`.~.i.;.&.&.Q.4XrX4X2X.X.XoXoX*X3X3X1X",
"sXsXsXsXsXsXsXsXsXsXiXv j j j j j j j z h.C.A.H.G.H.L.L.G.8.% @ @ @ @ @ @ @ 3 x p.<.:.<.`.:X:X:X:X`._.).`.eXrX2X4X+X3X+XoX4XtX2X",
"iXiXiXiXiXyXrXrXrXtX9Xz 5 g 8.8.g 5 h h.L.L.L.G.G.L.G.8.# @ @ @ @ @ @ @ @ @ @ = ` u.4.7.:X:X:X:X:X:X:X:X:X1XrXrXrX2X7X7X7X7X4X2X",
"tXiXiXtXiXtXrXrXrXrXrXq.%.%.%.%.%.%.#.H.L.L.L.L.L.0.% X @ @ @ # - @ @ @ @ - % @ B ] 6.E.;X:X:X:X:X:X:X:X:X<XiXiXtXrX7XrXrX0X7X4X",
"iXiXiXsXsXtXtXrX9X4X(.%.%.%.@.+.+.+.u.L.L.L.L.L.d X @ @ @ @ @ *  .> @ @ @ > { @ d ' ] a.p.d.J.T.[.;X:X:X:X:XT.T.$XrX7X3X2X4XtXtX",
"iX4X7XiXiXrX9Xx.Q R %.%.%.%.%.%.%.%.a.L.L.L.L.L.; @ @ @ @ @ @ @ # @ @ @ @ * * @ ; ' ' ' ' ' ' ' ] 5.7.W.!.).D.D.Q T.7X3X3X7XtXiX",
"3X4XrXrXiXtXc.c.&X{.%.%.%.%.%.%.%.%.9.G.L.L.L.L.> @ @ @ # @ @ @ @ @ @ @ @ @ @ @ & ' ' F ' ' ' ' _ -.4.4.4.E.tXiX#X) 3X3X3X4X7X7X",
".X3XrXtXiX8X/ =X7X1X%.%.%.%.%.%.%.%.O.q.L.L.L.L.| @ * | { @ @ @ @ @ @ @ @ @ @ @ # ` ' F ' ' ' ' z.<.>.4.4.4.rXsX9X! @X7X7XrXtXrX",
"3X2X4X7X7X@Xk.9X7X7X%.O.%.%.%.%.%.%.+.: s.L.L.L.8.@ @ - # @ @ . @ @ @ # % @ @ @ @ D ' F F ' ' ' 9.4.=.2.4.4.wXsXtXj.@XtXtXtXrXtX",
"3X4XrX7X2XU.k.9XrXrXy.+.%.%.%.%.%.%.O.e.}.f.F.L.q.@ @ @ @ @ @ . @ @ -  .* @ @ @ @ A ' ' F ' ' ` >.4.2.*.4.4.6XsX=X! $XrX7XeXrXrX",
"4XrX7X4X7X8XQ Y.$X&Xy.%.%.%.%.+.%.#.(.:X:X,Xf.G.Z.o o O O O O o @ @ # - @ @ @ @ @ A ' ' ' ' ' q.4.4.4.=.2.4.Z.) Q c.3X4X2XoXoXoX",
"tXtX7X7XtXsX-Xx.) ! %.%.%.%.+.+.d.:X:X>X<X,X/.G.Z.< 1 < , , ,   @ @ @ @ @ @ @ @ @ C ' ' ' ' ` >.4.4.4.2.-.4.].-X=X7X7X4X+X2X3X3X",
"4X4X4X7XtXiXiXrXrX2X%.%.%.%.e.}.:X:X>X<X^.|.w.w.f B i G e m q 6 @ @ @ @ @ - - @ @ a ' ' ' ' w.4.4.4.4.4.=.4.>XiXeX2X3X4X3X4X4X4X",
"iXiXtXiXiXiXiXiXiXrX%.%.#.^.:X:X:X,X>X~.|.].7 w n i m p G i G < @ @ @ @ @ -  .# @ y ' ' ' ' e.4.4.4.4.4.-.4.'.rXrX7X7X7X7X7X4X7X",
"sXsXsXsXsXsXiXsXtXtXy.d.;X:X:X:X<X|._. X}./.7 e e p e p e n e 0 % @ @ @ @ @ * @ @ 9 ' ' ' ` 8.4.4.4.4.4.:.4.`.iXiXiXtXtXtXrXrX7X",
"iXsXsXsXsXsXiXiXtXeX:X:X:X:X,X,X|. Xt.F.qX[.7 G p m i m w m w 0 + @ @ @ @ @ @ @ @ 8 F ' ' P y ,.4.4.4.4.-.:.).tXiXiXiXuXtXrX7X7X",
"sXsXsXsXiXiXiXtXiX6X:X>X,X<X`.`.].9 7 Z.qX[.7 n p m p m M m m 0 4 @ @ @ @ @ @ @ @ + D ' ' K B d 3.4.4.4.>.>.~.7XtXtXiXtXtXrX7XrX",
"iXiXiXiXiXiXsXsXiX6X<X<X`.^. Xq.< < i z.qXJ.0 i n e n i n i p q 2 @ @ * # @ @ @ @ % A ' ' M E y #.2.4.4.2.2.Q.rXrXtXtXtXrXrX7XrX",
"sXsXsXsXiXtXiXiXuXeX:X_.|.].V 0 u 0 u T qXF.t i H i H e G i B q 2 @ * | * @ @ * - @ r F ` E b.B e.<.4.4.4.4.7.tXtXtXtXtXtXtXrXeX",
"sXsXsXsXiXiXiXiXiXiXrX5X} V n G m Z G E qXZ.q Z p m i G e G e M 2 @ * > # @ @ { { @ a S Y ( M.T e.4.4.4.4.4.5.eXtXtXtXiXiXiXtXtX",
"iXiXiXtXtXtXtXtXtXtXiXsX9.d Z n i Z i c.qXZ.B b.Q b.W k.L _ L ( 9 @ @ @ @ @ @ * % @ f m B x.n.B e.4.4.4.4.4.4.6XiXiXiXtXtXtXiXiX",
"tXtXiXiXiXsXiXiXsXsXsXsXf.: W e m w n A.qXz.m ) Q ) / k._ _ k.W f X X X @ @ @ @ @ @ t Z R _ k.B e.4.4.4.4.4.5.eXtXtXiXiXtXtXtXtX",
"iXsXsXsXsXsXsXsXsXsXsXsX].$ E n J p H K.qXV Z L Q I Q U Q Q Q / t # @ @ X X X X X X t _ N.k.I.T e.4.4.4.4.4._.rXrXrXrXiXtXtXtXtX",
"tXtXtXtXtXtXiXiXiXiXiXtX5Xe.V Z i Z n J S.B R ) _ / ) Q U ) I / i y 9 d + = = + ; + T Q n.N.k.J e.4.4.4.4._.rXrXrXrXrXrXtXrX7XrX",
"rX7X7XrX7X7X7XeXrXrXrX7X7X7X@XG n n p n G a Z v.I v.U n.W n.Q v.! G B u B q a u u a G / n._ n.J r.4.4.5.;XiXsXsXiXiXsXiXiXtXtXtX",
"7X4XrXtXrXrXrXrXrXtXiXiXiXiX8XE p H n Z Z H U L ) I ) I ) I / U / Q U / H K G Z Z Z _ ) N.n.M.j.8.4.E.1XiXiXsXsXiXiXsXsXsXiXsXsX",
"rXrXtXrXrXrXtXtXiXiXiXsXsXsXtXH p Z p J n n.U n.I v.I v.L _ L ) L _ U / / U v.U n./ _ N.k.N.n.E y }.iXiXtXiXiXsXtXiXiXiXsXiXsXsX",
"7X7XrXtXtXtXtXtXsXsXsXsXsXsXsXj.n w Z i Z I ) Q _ Q k.) b.Q n.W n.U n.W v._ Q v.U ) / k.n.k.k.v.Q 9XiXtXrXtXiX7X7XiXiXiXiXiXsXsX",
"tXiXiXiXiXtXtXrXsXsXsXsXsXsXiXU.Z n n e p L U Y Q Q Q / Q / U / U ) I / Q W / I / L U v.n.k.N.n._ yXiXrXrX7XrXtXiXiXtXtXiX4XrXiX",
"iXuXtXrXrXrXrXrXiXsXsXiXiXsXrXU.Z H p J p W U ) I / L Y L Q P U P U Y U P U Q Y k.U n.n.M.I.k.k.M.tXrXrXrXtXiXsXtXiXtXrXiX7X3XrX",
"tXtXtX7X7X7X7XrXiXsXsXsXiXiXtXXXK i n n n H Q v.Q b.) n.Q v.) k._ ) b.Q n.W n.) ) v.U n.n.k.n./ D.4XrXtXiXiXtXrXrXtXiXiXsXiX*X+X",
"rXtXrXrXeX7X4XrXsXsXsXsXiXrX4X2XE m p i n i U U ) I ) U v.I k.U _ Q Q ) U _ U Q / L _ k.n._ n._ @XtXtXrX7XeXtXiXiXtXiXiXtXrX3X*X",
"rXtXtXrX7X7X4XeXsXsXiXiXiXtXrX3Xc.H p J i H e K L ) L / L / L / P Q U U Y L ) P _ I N.M.M.Y._ _ &X4X7XiXiXiXiXsXiXiXsXsXrXrX4X3X",
"3XtXeXrXrXrX7XrXiXiXiXiXtXrXeXrX@XZ Z n Z m Z G Z E I k.) _ _ ) k.Q n.W n.W b.k.) n.k.M.n.k._ j.2XtXiXiXiXsXsXsXiXiXiXrX4XrXtX2X",
"4X4XrX7XrXtXrXrXtXiXiXtXtXrXtXrXrXD.E C Z p n p Z i Z p H Z E H W I I / L k.U Q / U n._ j.D.U.3XrXtXtXrXrXrXrXtXiXtXtXrXrXiXtX7X",
"tXiXiXiXtXtXrXtXiXiXsXiXiXiXiXtXiXsXiX9X&XT.S.j.H K C C C G Z Z n n Z p C Z k.l.D.T.#X4X7X7X7X7XrXrXrXrXrXrXrXtXiXiXiXiXtXiXiXtX",
"iXiXiXtXrX7XrXiXsXiXiXiXiXiXiXtXiXsXsXsXiXiXsXsXyX9X=X=X&X$X$X$X#X#X#X#X&X7XrXrXrX4X4XtXtXrXrXrXtXiXiXiXiXiXsXsXiXiXiXiXsXsXiXtX",
"rXtXiXtXtXtXiXsXsXsXiXtXiXiXiXrXiXiXiXiXsXiXsXiXiX7XrXrX7X4XtXiX4X4X4X3X3XrXiXrXrX7X7XrXrXrXtXtXtXiXsXsXsXsXsXiXiXiXtX3XrXiXtXtX",
"4XtXiXiXiXsXsXsXiXiXtXrXrXtX4XtXiXtXiXiXtXsXsXiXrXrXrX2X7X7X0XrX4X9X4X3X3X4X7XeXrXrXrXtXiXiXtXrXtXsXsXsXiXiXsXsXiX7X2X7XrXtXtXiX",
"rXrXiXiXsXsXiXiXiXtXrXrXrXtXiXtXiXtXtXiX7XrXiXyX0X7XrX*X4X0X7X2X4X2X7XrXeXtXtX7XrXtXiXiXiXtXrXrXtXiXiXiXiXiXsXtX3X.X+X7XrXtXiXiX",
"3XrXsXsXsXiXiXiXrXrXrXtXiXiXiXtXiXtXtXiXrX3X7XrXrX9XrX9X7XrX7X4XrXrXrXtXtXtXtXtXtXiXiXtXrX7XrXrXrXiXiXiXiXiXiXrX.X+X2X4X7X7X7XtX",
"sXsXsXsXsXsXrX7X7XrXiXtX7XrXtXiXtXiXiXiXiX2X+X4X+X4XrX0X7X7X9X0X3X4XrXeX7XrXrXrXrXtXuXrXeX7X4X7XrXsXsXiXiXsXiXtX2X3X2X7X7X4X2XrX",
"iXsXsXsXtXrXtXiXtX7XtXrXtXtXiXiXiXsXiXtX7X3X3XoX*XXX2X4X+X.X2X7X+X3X4X3XoX.X.X7XrXtXrXrXtXrX7X4XrXsXsXiXiXiXrX7X+X4X7XtX7X4XrXsX",
"sXsXiXtXrXrXrX4X7XrXtXiXsXsXiXtXiXsXiX0XrX0X2XXX{.+XXX+X4X0X2X2X3X0X7X2X1X2X4X2X7XrXtXrXrXrX7X7XrXiXiXiXiXtXrXrX4XrXtXrX4XrXsXsX",
"tX7X3X2X2X.XoXrXiXiXsXsXsXsXsXiXiXrX9X4XrXrX3XrX*X4X4X&X2XyX2XoX*X2X4X3X4X4XrX3XoX1X4XrXrXrXrX7XrXiXiXiXiXtXrXrXrX7X4X4X4XiXsXsX"
};
