/* XPM */
static char *_c693eb713c1440cd5acd5d2031fb06184DfUGySCEmhEFUx[] = {
/* columns rows colors chars-per-pixel */
"64 64 139 2 ",
"   c #5A4B4C",
".  c #5D4F50",
"X  c #5E5051",
"o  c #634D4C",
"O  c #6C4D4A",
"+  c #6D514E",
"@  c #79544D",
"#  c #645657",
"$  c #675A5B",
"%  c #6C595B",
"&  c #7B5A54",
"*  c #755D59",
"=  c #7B5E5A",
"-  c #7F615C",
";  c #6D6162",
":  c #676A6D",
">  c #69686B",
",  c #706565",
"<  c #7E6461",
"1  c #796867",
"2  c #766B6C",
"3  c #7C6B6C",
"4  c #7F6E70",
"5  c #805D57",
"6  c #B35F57",
"7  c #81635E",
"8  c #826562",
"9  c #846966",
"0  c #8A6A64",
"q  c #876D6B",
"w  c #896D69",
"e  c #956E65",
"r  c #95726A",
"t  c #857475",
"y  c #8C7574",
"u  c #897977",
"i  c #877778",
"p  c #867B7C",
"a  c #897C7D",
"s  c #917672",
"d  c #957974",
"f  c #9B7971",
"g  c #957C78",
"h  c #9B7F7A",
"j  c #BA7874",
"k  c #C56B66",
"l  c #9D9A67",
"z  c #8F8C74",
"x  c #94807F",
"c  c #9C827E",
"v  c #A1976D",
"b  c #B18679",
"n  c #D28C4A",
"m  c #CDC04C",
"M  c #8D7F80",
"N  c #8E8485",
"B  c #918384",
"V  c #9D8582",
"C  c #948885",
"Z  c #9E8986",
"A  c #948789",
"S  c #93898A",
"D  c #9E8C8A",
"F  c #9A8F91",
"G  c #9B9192",
"H  c #A08581",
"J  c #A28986",
"K  c #A28D8B",
"L  c #A88E8A",
"P  c #B28C89",
"I  c #A4908E",
"U  c #AA918E",
"Y  c #B18F90",
"T  c #A39494",
"R  c #AB9593",
"E  c #A69996",
"W  c #AD9895",
"Q  c #AD9799",
"!  c #A69C9D",
"~  c #AC9B9C",
"^  c #B49996",
"/  c #B19698",
"(  c #B49C9B",
")  c #B89F9C",
"_  c #AFA19D",
"`  c #B6A09E",
"'  c #B9A19F",
"]  c #B19FA0",
"[  c #ACA3A4",
"{  c #B2A2A3",
"}  c #BAA5A3",
"|  c #BBA9A6",
" . c #B6A7A8",
".. c #B5A9AB",
"X. c #BDACAA",
"o. c #BFB0AD",
"O. c #B8AFB0",
"+. c #BFB3B4",
"@. c #C1AEAD",
"#. c #C3B3B3",
"$. c #C9B6B6",
"%. c #C6B8B5",
"&. c #C6BBBC",
"*. c #C9BCBD",
"=. c #CAC0BE",
"-. c #CFBFC0",
";. c #CEC5C3",
":. c #D2C4C5",
">. c #D4C7C8",
",. c #D5CCCB",
"<. c #D1D1CF",
"1. c #D9D1CF",
"2. c #D5D5D4",
"3. c #DBD5D4",
"4. c #D9D8D6",
"5. c #DCDCDB",
"6. c #E2DCDB",
"7. c #E1E0DE",
"8. c #E5E5E4",
"9. c #EAE7E6",
"0. c #E9E8E7",
"q. c #EBE7E8",
"w. c #ECECEC",
"e. c #EEEEEC",
"r. c #EFEFEF",
"t. c #F0EFED",
"y. c #F1F0EE",
"u. c gray94",
"i. c #F1F1F1",
"p. c #F4F3F1",
"a. c #F4F4F3",
"s. c #F4F4F4",
"d. c gray97",
"f. c #F8F7F6",
"g. c #F8F8F7",
"h. c #F9F9F9",
"j. c #FBFBFB",
"k. c #FDFCFB",
"l. c gray99",
/* pixels */
"h.h.l.l.h.h.d.h.l.h.h.h.h.l.l.h.k.y.a.h.g.h.i.i.i.r.i.i.d.h.h.d.d.d.d.d.i.r.r.d.r.d.h.h.h.i.i.r.d.h.h.l.l.h.l.l.l.i.i.d.r.i.r.i.",
"h.h.l.l.h.h.i.h.h.l.l.h.h.l.h.l.g.p.d.g.d.y.d.d.d.i.d.d.d.d.d.h.h.d.d.i.i.r.i.d.i.h.h.h.d.d.r.i.h.h.l.h.h.h.l.l.l.i.0.0.8.8.r.d.",
"d.d.d.i.i.d.d.d.h.d.h.l.l.l.h.h.i.0.a.i.0.y.g.d.d.i.i.r.8.i.i.h.h.h.d.d.i.r.i.i.i.i.i.h.h.d.d.h.l.l.h.h.d.d.h.h.i.8.0.0.0.0.r.d.",
"d.r.i.d.h.l.l.l.h.h.h.i.d.l.h.h.i.p.r.9.y.r.a.i.i.i.i.r.i.d.i.r.i.d.d.d.i.r.i.i.8.8.i.h.h.d.h.l.l.h.h.d.i.i.i.r.0.8.r.r.0.0.0.i.",
"d.d.i.d.h.h.h.h.d.d.d.r.r.d.h.d.0.p.r.6.a.r.0.8.i.i.d.r.i.d.i.d.d.d.d.d.i.i.i.d.d.i.i.h.h.l.l.l.h.h.d.i.r.i.d.h.h.0.0.0.i.r.d.h.",
"h.h.h.h.h.l.l.d.d.d.g.d.8.0.i.a.y.p.p.0.y.y.r.8.r.r.i.i.i.d.d.d.d.d.h.d.d.d.d.i.r.0.d.h.l.l.l.l.h.i.i.i.i.d.h.h.d.i.d.d.d.d.d.d.",
"h.d.l.l.l.l.l.d.h.l.l.k.8.5.8.7.8.p.r.t.r.r.0.i.r.i.i.i.i.i.d.d.d.d.h.d.d.d.d.d.d.h.l.l.l.l.h.d.i.r.i.h.d.i.i.i.d.8.8.i.i.r.i.i.",
"l.l.l.l.l.h.h.d.h.h.d.r.r.5.7.5.5.6.8.9.2.4.0.r.i.t.r.r.r.t.r.q.0.0.9.9.9.q.q.r.r.p.f.h.h.l.d.i.d.h.r.i.i.i.d.h.l.5.8.0.8.8.4.2.",
"l.l.l.l.l.l.h.h.l.l.d.r.i.0.2.2.5.| | | | } ` ' ` ) ` ) ) } } } } } } } } } } } ` ' ) ) ` } 0.d.r.8.r.h.h.h.l.l.l.0.r.0.8.4.8.8.",
"l.l.l.l.l.l.l.h.d.i.0.d.d.0.r.r.;.#.*.*.*.*.*.*.*.*.*.*.*.*.*.*.*.*.*.*.*.*.*.*.*.*.*.*.*.$.} ,.0.h.h.h.h.h.l.h.h.8.8.0.0.8.0.r.",
"l.l.h.h.h.h.h.d.d.d.d.g.h.a.d.q.| *.*.*.*.*.*.*.*.*.*.*.*.*.*.*.*.*.*.*.*.*.*.*.*.*.*.*.*.*.#.,.r.d.h.d.d.d.r.d.h.r.d.i.i.r.i.d.",
"l.l.l.l.l.l.l.h.h.h.l.l.l.h.h.:.) ( ^ ( ^ ( ( ( ^ ^ ^ ^ ( ^ ^ ^ ^ ^ ^ ^ ^ ^ ^ ^ ^ ^ ^ ^ ^ ^ ( } i.d.l.h.l.l.h.h.h.h.h.i.a.h.d.d.",
"l.l.l.l.l.h.h.d.h.h.l.h.h.h.d.@.:.:.:.>.>.>.>.:.:.:.:.-.*.*.$.$.$.$.$.$.$.$.$.$.%.#.#.#.#.@.@.' d.h.l.l.h.h.l.l.l.h.h.p.d.d.d.d.",
"l.l.l.h.h.h.d.d.d.d.d.d.i.d.d.H Z h V V c f r e h V V Z V V V c c c Z K K K K K K K I T T T T R d.h.h.h.h.l.l.l.l.g.p.q.a.y.0.i.",
"h.h.h.h.h.h.l.l.h.d.i.i.d.h.h.K K 6 z z u : : > Z ! x + O V } q V O O @ T ! ~ ~ ~ ~ Q R R ! ! R i.h.h.h.l.d.h.l.h.g.i.d.y.8.d.0.",
"l.l.l.l.d.d.h.h.h.d.i.d.h.l.h.K ! ! E E E T T T ! ! s   o ..&.a B     O T ! k j n b m v l ~ ! R i.h.h.i.h.0.r.h.g.f.0.t.r.7.t.r.",
"l.l.h.h.h.h.h.h.h.h.d.l.l.h.h.I ! ! ! ! ! ! ! ! ! ! s   3 *.{ E %     O T ! P Y P / P R U ! ! R i.d.h.d.h.d.8.0.i.g.y.i.p.0.i.i.",
"l.h.d.d.d.d.i.i.d.h.h.l.l.l.l.R ! ! ! ! ! ! ! ! ! ! Z = c ( s H @ & 5 0 E ! ( ( ( ( / / ( ~ ! L i.d.h.l.l.h.8.8.8.7.5.i.i.r.0.r.",
"h.d.d.d.h.l.h.h.l.l.l.l.l.l.l.U ! ! ! E E E E E T T T K K K K K K K T T T E E E E Q Q ! E E E J r.h.h.h.d.r.r.8.5.5.5.4.8.8.2.2.",
"h.h.h.l.l.l.l.l.l.l.l.l.l.l.l.L I K D Z D K K K I T T T E E E E E T T T K K D D D K K T T T T H r.h.h.h.i.r.i.8.4.<.5.4.5.5.i.r.",
"l.l.l.l.l.l.l.l.h.h.l.h.h.h.l.W ! ! ! ! ! ! ! ! ! ! ! ! ! ! ! ! ! ! ! ! ! ! ! ! ! ! ! ! ! ! ! J r.h.d.r.0.i.d.0.0.r.7.0.7.4.y.d.",
"h.h.h.h.h.i.i.i.i.d.d.i.i.i.d.W ! ! ! ! ! ! ! ! ! ! ! E K I R R I L I E ! ! ! ! ! ! ! ! ! ! ! Z d.h.d.h.h.h.h.d.h.0.8.0.r.i.r.8.",
"h.h.h.h.h.d.i.i.i.i.i.d.h.h.d.W ! ! ! ! ! ! ! ! ! E | ;.&.*.*.*.*.*.%.) K E ! ! ! ! ! ! ! ! ! Z d.h.h.h.h.h.h.h.h.a.a.i.r.r.i.i.",
"d.h.h.l.d.d.d.d.d.i.i.i.d.h.h.W ! ! ! ! ! ! ! ! I 3.l.q.*.*.*.*.*.*.*.*.*.` I ! ! ! ! ! ! ! ! Z t.d.d.h.h.l.l.h.d.i.r.0.8.8.r.d.",
"r.8.d.h.i.d.d.d.d.i.r.0.r.i.d.W ! ! ! ! ! ! E L *.9.6.3.*.| / U R } &.*.*.*.| K ! ! ! ! ! ! ! D q.d.h.d.d.d.i.i.h.r.0.0.8.8.r.d.",
"8.i.i.h.h.h.h.i.i.d.i.i.d.i.i.R ! ! ! ! ! ! K &.*.*.*.| 7 o   # 2 1 & U &.*.*.| K ! ! ! ! ! ! K q.h.h.g.i.i.d.h.l.0.0.0.8.0.0.i.",
"5.r.d.d.d.h.h.r.i.d.i.i.d.d.d.R ! ! ! ! ! K %.*.*.#.w         p p N ! a 9 #.*.*.) T ! ! ! ! ! K 8.d.d.d.i.d.h.l.l.r.0.r.r.i.d.d.",
"8.8.r.r.0.d.d.r.r.i.r.i.d.d.d.R ! ! ! ! T } *.*.X.* p G X             2 X * #.*.*.L ! ! ! ! ! D 6.h.h.h.d.l.l.l.l.d.d.d.d.d.d.i.",
"8.d.i.8.8.i.d.i.i.i.r.i.i.d.d.R ! ! ! ! K *.*.%.8 p &.&.;                   9 &.*.#.K ! ! ! ! B 3.d.d.l.l.l.l.l.l.0.8.d.r.r.i.i.",
"r.i.0.0.i.l.h.i.r.i.d.d.d.h.d.R ! ! ! E ` *.*.h   [ &.O.                      R *.*.R ! ! ! ! t 6.l.l.l.l.l.l.l.l.8.8.0.8.5.4.2.",
"h.r.0.i.h.l.h.i.i.i.i.i.d.d.d.R ! ! ! K %.*.#.O   [ +.2                       J *.*.} E ! ! ! 3 6.l.l.l.l.l.l.l.l.0.i.0.8.5.8.0.",
"0.0.r.d.h.h.d.i.d.i.i.i.i.i.i.U ! ! ! K *.*.(       X                       9 *.*.*.%.K ! ! D 3 3.h.h.h.h.h.h.h.h.8.8.0.8.8.0.0.",
"d.d.h.h.h.h.h.h.d.d.d.h.h.h.h.U ! ! ! R *.*.J   G [                         R *.*.*.*.J ! ! M 3 ,.i.i.i.i.i.i.i.i.i.0.i.r.r.0.0.",
"l.l.l.l.l.l.l.h.d.h.l.l.l.h.h.U ! ! ! R *.*.g   S F                         } *.*.*.*.K ! E 4 3 ,.i.i.r.i.d.h.h.h.h.d.d.d.i.i.r.",
"l.l.l.l.l.h.h.d.d.h.h.h.h.h.d.U ! ! ! R *.*.g                               } *.*.*.*.L ! S 3 3 1.d.d.d.i.i.i.d.h.h.h.h.d.d.r.0.",
"l.l.l.h.d.h.d.d.h.d.d.d.i.i.d.I ! ! ! I *.*.J                               / *.*.*.*.K ! t 3 3 1.d.i.i.i.8.i.i.i.d.d.d.d.d.i.i.",
"h.h.h.h.h.l.l.h.h.d.i.i.d.h.l.U ! ! ! T #.*.}                               s *.*.*.&.K F 3 3 3 ,.i.i.i.i.i.d.i.i.i.d.h.d.d.r.r.",
"l.l.l.h.d.h.h.d.h.d.i.i.h.l.l.U ! ! ! ! ` *.*.-   ,                     # 2 o R *.*.} T t 3 3 3 =.i.r.i.i.i.d.d.d.d.d.d.d.d.d.i.",
"l.l.l.l.h.h.h.h.h.l.h.l.h.h.l.U ! ! ! ! I *.*.R   S G .               2 [ $ o ) %.*.U A 3 3 3 3 ;.r.0.i.i.i.d.d.d.d.d.d.h.h.d.d.",
"l.h.d.d.d.d.i.d.d.h.h.l.l.l.l.I ! ! ! ! E } *.*.d   ! O.N 2 ; ; 2 N ..&.A   c *.*.#.V 4 3 3 3 3 ,.i.i.r.r.r.d.d.d.h.h.h.d.d.d.h.",
"d.d.d.d.h.h.h.h.l.l.l.l.l.l.h.U ! ! ! ! ! I %.*.&.V o G &.&.&.&.&.&.&.! + J *.*.*.U i 3 3 3 3 3 ,.i.i.i.d.d.d.d.d.d.h.h.h.d.d.d.",
"h.l.l.l.l.l.l.l.l.l.l.l.l.l.l.R ! ! ! ! ! ! U *.*.*.| d < S E E T K d c X.*.*.*.X.y 3 3 3 3 3 3 ;.d.i.i.i.i.i.d.d.i.d.d.h.d.d.d.",
"h.h.h.h.h.l.l.l.l.l.l.l.l.l.h.R ! ! ! ! ! ! E U *.*.*.*.%.| ` ) } @.*.*.*.*.*.X.g 3 3 3 3 3 3 3 &.i.d.i.i.i.i.i.i.i.i.d.d.d.i.i.",
"i.i.i.i.i.i.i.i.i.i.i.r.r.i.d.` ! ! ! ! ! ! ! E K @.*.*.*.*.*.*.*.*.*.*.*.&.R y 3 3 3 3 3 3 3 3 ,.d.d.h.d.d.h.h.h.d.h.h.d.d.i.i.",
"0.r.i.i.r.r.i.i.i.d.d.d.d.d.l.} ! ! ! ! ! ! ! ! ! Z R #.*.*.*.*.*.*.*.#.( V i 3 3 3 3 3 3 3 3 3 1.d.h.h.h.h.h.h.h.h.l.l.l.l.h.h.",
"r.d.d.d.i.d.d.d.h.h.h.l.l.l.h.| ! ! ! ! ! ! ! ! ! ! ! T K R ( ( ( R K Z B 4 3 3 3 3 3 3 3 3 3 3 3.h.l.h.h.h.h.l.h.d.h.l.l.l.h.l.",
"r.r.i.i.i.d.d.h.h.h.l.l.l.l.l.X.! ! ! ! ! ! ! ! ! ! ! ! ! ! ! ! G A a 3 3 3 3 3 3 3 3 3 3 3 3 3 6.l.l.h.d.d.l.h.i.d.h.h.h.l.l.l.",
"d.d.d.d.d.d.i.h.l.l.l.l.l.l.d.X.E E T K K K J K L K K J H V s 0 8 8 8 8 8 8 8 8 8 8 8 8 9 9 9 8 6.h.h.d.i.i.r.r.i.d.d.h.l.d.i.h.",
"h.h.d.d.d.i.i.d.l.l.l.l.l.h.i.} $.%.} ' %.&.%.+.X. .{ { { { { { { { ] ( ( ~ ~ ~ ~ ~ ~ ( ] { { R 6.h.d.i.r.i.d.l.h.h.h.i.d.d.8.y.",
"d.d.i.r.r.i.i.d.l.l.l.h.h.h.0.}  .K ~ ( J ~ { { { { { { { { { { { { { { { { { { { { { { { { { R 6.i.r.i.d.h.h.h.d.d.h.d.h.h.r.8.",
"d.d.i.r.r.0.r.h.l.l.l.h.d.d.0.o.( R { { { K { { { { { { { { { { { { { { { { { { { { { { { { { R 3.r.i.h.d.i.r.i.d.d.d.h.h.l.i.5.",
"d.d.d.i.i.0.0.h.l.l.h.h.d.i.8.%.( R { { { K { { { { { { { { { { { { { { { { { { { { { { { { { R 6.h.r.i.i.d.h.h.h.d.h.l.h.i.i.8.",
"d.i.i.i.r.i.r.h.h.h.h.h.d.i.0.*.{ U R ~ J ~ { { { { { { { { { { { { { { { { { { { { { { { { { R 3.8.i.h.h.l.l.l.l.d.h.h.d.r.d.0.",
"r.r.r.i.i.r.r.d.h.h.d.d.i.r.i.,.( H f f U U U U U U U U U U U R R / ) ` ) ` } } } X.| d s r } | 5.d.h.d.h.h.h.h.h.d.d.d.r.r.d.0.",
"i.i.d.d.h.h.i.d.h.h.h.h.h.h.h.d.d.I C ;.i.p.i.i.i.d.i.r.i.i.d.d.r.0.r.i.i.8.8.r.r.i.i._ E ..i.r.i.d.d.i.i.i.r.i.d.h.h.d.d.h.l.h.",
"h.l.h.d.r.i.i.h.h.h.h.h.h.h.h.d.l.l.h.l.l.l.l.h.l.h.d.h.h.d.i.y.i.d.i.r.r.r.i.0.0.r.0.r.i.r.r.r.i.i.d.d.d.d.d.h.h.h.h.h.h.h.h.h.",
"h.h.d.i.i.i.h.l.l.h.h.h.h.h.h.d.l.l.l.l.h.h.l.l.h.i.d.d.h.i.h.h.r.0.8.8.8.i.d.i.i.r.r.d.d.i.i.d.d.h.h.l.l.h.l.l.l.h.h.d.h.l.h.d.",
"i.h.h.d.d.h.l.l.l.h.d.d.h.h.i.d.h.h.h.h.l.l.l.k.d.r.i.r.r.q.d.g.0.r.0.8.8.r.d.d.i.r.r.i.i.i.d.d.d.h.l.l.l.l.l.h.h.h.d.8.8.d.d.i.",
"d.h.h.h.l.l.l.h.h.d.i.i.i.r.r.h.h.d.l.h.i.l.h.g.t.a.d.8.t.r.t.y.0.q.r.0.0.0.r.r.i.d.d.d.h.h.d.i.i.h.l.l.l.l.l.l.h.i.5.0.i.d.d.h.",
"r.d.l.l.l.l.h.h.d.i.r.i.d.h.h.d.l.i.d.d.0.i.h.g.y.r.a.6.0.y.r.8.0.0.r.i.i.d.d.r.i.d.h.h.d.d.d.d.i.h.h.h.h.h.h.h.0.2.2.0.r.i.d.d.",
"r.l.l.l.h.h.h.i.r.i.d.d.h.h.d.d.h.d.h.h.i.8.0.p.y.y.a.y.y.i.q.r.p.a.i.d.d.d.d.d.d.h.h.d.i.r.r.i.i.h.l.l.h.h.h.h.0.2.8.8.0.r.0.r.",
"l.l.l.l.l.d.r.r.i.d.d.r.r.i.h.h.d.h.h.h.d.8.5.8.5.8.a.y.r.r.y.y.8.8.i.i.0.r.i.i.i.d.d.d.i.r.r.0.r.h.l.l.h.h.h.d.0.8.8.0.i.r.8.0.",
"l.l.l.d.i.d.h.h.r.d.i.d.h.h.h.h.h.l.h.i.r.8.8.4.7.4.7.8.4.2.7.r.5.0.0.8.4.2.2.0.i.i.d.d.d.i.r.0.r.h.l.l.h.h.d.i.8.8.r.d.i.r.r.d.",
"l.h.h.i.i.i.0.0.i.d.h.l.l.l.h.d.h.k.d.r.a.r.7.4.2.5.4.5.r.a.8.8.8.y.r.8.8.8.0.8.0.r.d.i.i.i.i.r.r.h.h.h.h.h.d.i.r.i.i.d.r.0.d.l."
};
