/* XPM */
static char *_71af43097064e19d394b47c212e78e8z5HamDPSRKytXO5B[] = {
/* columns rows colors chars-per-pixel */
"64 64 44 1 ",
"  c #CECECE",
". c #D2D1CF",
"X c #D2D2D2",
"o c #D5D4D2",
"O c #D6D6D4",
"+ c #D8D7D5",
"@ c #D9D8D6",
"# c #D8D8D8",
"$ c #DADAD8",
"% c #DCDBD9",
"& c #DEDDDB",
"* c gainsboro",
"= c #DFDFDD",
"- c #E0DFDD",
"; c #E0E0DE",
": c gray88",
"> c #E2E2E0",
", c gray89",
"< c #E4E3E1",
"1 c #E4E4E2",
"2 c #E7E7E7",
"3 c #E8E7E5",
"4 c #E9E9E7",
"5 c gray91",
"6 c #EAEAEA",
"7 c #ECEBEA",
"8 c #ECECEA",
"9 c #ECECEC",
"0 c #EEEEEC",
"q c #EFEFEF",
"w c #F0EFED",
"e c #F1F1EF",
"r c #F3F3F3",
"t c #F4F3F1",
"y c #F6F5F3",
"u c #F4F4F4",
"i c #F6F6F6",
"p c #F8F7F6",
"a c #F8F8F7",
"s c #F8F8F8",
"d c #FBFBFB",
"f c #FCFBF9",
"g c #FCFCFA",
"h c #FDFDFD",
/* pixels */
"sshhhssshhsiriirsiyeiiiirriiiiiirrr0000r0iriissirissssssr660ir>2",
"sshhhhsshhshshhhhyrsasrrr0rrissiiiiir0ri6isssr00ishhhhhhsri000rr",
"isshssiisshhshshatiyiwiiiriiriissiirr0riisssir0ishhsishhs026>6ri",
"sirrrrsisisshhhsr0e880pirrr06rrisssir0rrrrrssishhssirisr620626rr",
"irrishhshihrrssseyt<r8rr0ri0rirrriirr0ri26issshhhssrrr00060060r0",
"iiiiishssrir20is0ey&w08>0rr0riiiiiiiirrri0rshhhhsiir0rssr06rrrsi",
"isshhhhsissge14r0eeeet7660rrrriiiisiiiir0rshhhhsi0riissirririiir",
"isshhhhsishse==>$4we340rrrrrrrrisssiiiiisshhhhsrrriir00ir$0r0060",
"hhhhhssssss0e>1O=@=>+@>60rrrrisiisiiiisishhhhriisr6iisssr>2>$O$O",
"hhhhhhhhshi0i0=;%&&$ry>6rirrriirrisirirssshrr02>2rssshhsr600>260",
"hsssssssii0ei88i104;8r$2riiiirrr00rrrr0irr0>>2=>isissiisr>606200",
"hhhhhhhsisshhhsarrir00yiisiihsir000ir62000r000rrrshssiisiaprryii",
"hhhhhhhssshhhssiiisssshhhshsssiirr026rrr002rirr0ishshhhhggatpfsi",
"hhhhhssiiisssiisssshhhhssi0issii02262rsrr0rirrriisshsshhsswyit0i",
"sshssssssiir0rshshhhhhhsi266srii6r6>66rrrrrrrsiiissshshhsyie3w0r",
"hhhsssssssirshhhshhhhhsr==0issss0>666ri0rssssiirisisi6isa8ey>060",
"hhhhsssssiiihshhshhhssi$X=20r0ss0rrirsriiisiiirrrsiii66isy8y34r0",
"hhhsssiiiishhhhsshhhssi2>>266>0i0rrrirriiiir0660rrhhhi=>0>0y0006",
"hsiiiisisshhhhhsshhhsi0=62rr60is=>r0>>=0riirrr06rihsir2>$;$60==6",
"iisshhhhhhhhhhhssssssrr20rr00shs202=O==>6riiir06rshsrr6>oo$@>22>",
"hhhhhhhhhhhhhhhsshssir0rrr66rshs26662602=2rrirr0rsi06ir26&2=$4i2",
"sssssiirriiirriirrr0660rr066r0rir0rrrrr6600iiiirssiiisirr>688802",
"issssirrrrriisiiriirr0rrrrriirisiissshsrsshhhhhhhsssssssir0rrr06",
"ssshsiirirrirshssiiir6iiissssssssssshsiishhhhhhhsisshhhsri02>6ii",
"s60sirsiirr600isssii0i0rsssshhhssi20ssiishhhhsssiiiiiirii60220is",
"20rrsssirir0rrrriiii0riishhhhhhsi26risiishshsssshssirrisi2022660",
"O2risshr0rrrriiiiiiirrrrshhhhss0$O6risssihshshissiiirishi62000ir",
"2>6000sr0rrriiiiissiiiirihhhsss>O22000isshshhsihsssishhhisiiisri",
"26r6>6irrr0rriiiissiisiishhhhsi2>>6r026ishssissiriihhhhhi>0r00rr",
"6i060shi0rrrisiiisiiiisishsssir=26i06rshssiiiisshhhhhhhhi>66>$$$",
"ii60ihhrrrrriiiiisiiiiiisssssir00is60shhissshhhhhhhhhhhhr006==26",
"6660issriir0rrr00rirrriiisiir00006220ississsssssssssssssr>262266",
"ssissssssiissssr020r0>200000r0r0riiiirrirsrrriirrrrrrrrrr06r0060",
"hhhhhhhhisshhssiii000r06060rr00rshsshhhhshrisiirrr00rissssiiirr0",
"shhhhhssiissssii06220iiri0riiirishsssshggptaii0siiiir0risssiir06",
"hhhhsssissiir0ir60626ri0000rriiissssshhsst8e06rsirrr06r0risiir0r",
"sssssshssirrihsi26666rrirssisirissisrrhsy8i84r6rrrrrrrirriiiir0r",
"hhhhsissiirrishr06rriirrissiiiriisri02iss4e0;r60>r0rrriiiiiiiiir",
"hhhhsssssshhhshsiiriiriiiiii06rrisshh6>6e8yrw0r6020rrriiiiisssii",
"sssiiiiiisshhhh0$6r0060riiirrr6riishs0=1=&0e0600rrrrrriisssiiiis",
"iisshhhhhhhhhhsr26>$X$$0riiirr02ihsi00>=O=$>>$$>rrriiiiiiissiias",
"shhhhhhhhhhhhhhr606>260=6rrrrr00iss00s6>=>$$=ir=6iirrrrrrriiiiii",
"iiiiiisssssiiisr26r06r62$20rrrr0ir060r600>r62rr=6iirrrrrrririr0r",
"r00r000rrrr000rssssissir00riiiirrrrr000iriisssiirisssssssssssiri",
"06iirrrriissssshsshsssiirrr0isssssiri6rr0shsir0rsshssshhsshhhshh",
"rrirrriissshhhhssi0ssiiiirir6risssiir0rriiissrishhhsisshissshshg",
"00riiiiihhhhhhsii200iiiiirr0ri00isiir0rr66issishhhsiris00sssssgh",
"issssiiihhhhhhs0$>rrisssrri0ririrriirrri00ssshhhhssirrrissiis6rs",
"ssirrrrrshhsshrO$>6rr0si00r0riiiiiiiiirrr20shhhhsir0rishisirs02y",
"iii0000ishhhssi>>>066>rr0000riiiiiiisiirrihhhhsir6rissirrisshg>&",
"iiirr06ihhhhsr6266r020ssrrrrriisssiissiisshshhiriiir00ississiy4;",
"iiir0r6rhhsssir2rir6rhhsrirriiisiisiiiiiihhhs0rsr60ssshhsshhr002",
"6irrrr6rssssirrrrr06ihhsiirrrrrrrisiiiisisi006OO2issshhhsssr6ri2",
"66r0rirrissiiriri0rrriiirirrrrii060rr62r0r026660riirrrrisiirrsi0",
"isssiirrsshssssishhhssssssriiiirrrrrr6026r0r0000rrrrrrrissssisss",
"sssir0rshssssssishhhsshhhsiisrii00626rrrr66iirriissssshhsssshhsi",
"risiiishhssisssrsssshshss8ry06is66622rsrr00rrriiishhhhhsssi2rsii",
"6issshhhssirri6isissihgsryy<08ey6e62260rririssirihhhhhhhsr>0riis",
"rrshhhhsiirrrisisiis6rsae7y;6e8<410rrii00isssiirissssshi2O=6riss",
"2rhhhsssrrrisssisiisr20yteyw8t86ryriiiiiissir0rrrssssssrO$>6006i",
"hhhhhhr00rsr0risishss>%4&4ye00we14rr0rrriisi0066rhhsshsi>2>006>r",
"shhsirisi0iriissshsr022@;+>4%o<0&362$OO0riiiir06rhhsssr0=60i06rs",
"hhsirrr60rsshhsisgserw>O.=O=6e>>2e0>>>6>0rirrr00rssssirr6rir60hh",
"i02=> $rshhhhhhssy06ye4r;76-1a1@;>6266r2$=6rrrr0rshssirrr0666ihh"
};
