/* XPM */
static char *_133fcad598b423ec22695a289526b691Stway2xGNi2gPdw[] = {
/* columns rows colors chars-per-pixel */
"64 64 181 2 ",
"   c #000019",
".  c #0A0A1E",
"X  c #17061B",
"o  c #1C111E",
"O  c #141423",
"+  c #20202B",
"@  c #382526",
"#  c #2F2C32",
"$  c #410F1F",
"%  c #5B1622",
"&  c #7B1C24",
"*  c #432D2B",
"=  c #49332C",
"-  c #513D38",
";  c #79272D",
":  c #6F4E3D",
">  c #4D4D51",
",  c #745240",
"<  c #636366",
"1  c #666669",
"2  c #737375",
"3  c #BB2E2F",
"4  c #B22B33",
"5  c #B82D30",
"6  c #A83437",
"7  c #BB3737",
"8  c #C53636",
"9  c #CD3C3C",
"0  c #D13F3F",
"q  c #C34B3B",
"w  c #845E49",
"e  c #BF4040",
"r  c #BF4A4A",
"t  c #BF5F5E",
"y  c #8A624A",
"u  c #91674D",
"i  c #956B50",
"p  c #BA644D",
"a  c #D54242",
"s  c #DB4646",
"d  c #DB4949",
"f  c #C85751",
"g  c #D25757",
"h  c #DD5454",
"j  c #DD5D5C",
"k  c #D7664E",
"l  c #D36E53",
"z  c #DA7459",
"x  c #DB7E5D",
"c  c #C96B69",
"v  c #DD6161",
"b  c #C97C7C",
"n  c #DE7D7C",
"m  c #E87E62",
"M  c #E07777",
"N  c #B4805E",
"B  c #B98462",
"V  c #C68C68",
"C  c #D78362",
"Z  c #D3956E",
"A  c #DE916B",
"S  c #D4817F",
"D  c #DD9C73",
"F  c #E9966C",
"G  c #ED9A71",
"H  c #F89F75",
"J  c #F5BC6F",
"K  c #E9A77A",
"L  c #F2A176",
"P  c #FCA378",
"I  c #F3AC7D",
"U  c #FCAB7D",
"Y  c #F6BB71",
"T  c #F8BF71",
"R  c #FEC976",
"E  c #FFCB77",
"W  c #9D9D9E",
"Q  c #ADADAE",
"!  c #B3B3B4",
"~  c gray74",
"^  c #C38D8B",
"/  c #DF8080",
"(  c #CD8F90",
")  c #D99595",
"_  c #DC9F9E",
"`  c #E38888",
"'  c #E3988B",
"]  c #E39594",
"[  c #E49A99",
"{  c #DAA69B",
"}  c #F9AD83",
"|  c #FFB483",
" . c #FEB78B",
".. c #FEB98D",
"X. c #E9A691",
"o. c #FAB497",
"O. c #FEBC93",
"+. c #D9A7A6",
"@. c #E3A3A2",
"#. c #E3A9A9",
"$. c #E6ACAB",
"%. c #E4B3B2",
"&. c #E4B8B6",
"*. c #E5BDBB",
"=. c #EBBBBB",
"-. c #F6C688",
";. c #FEC19E",
":. c #FED496",
">. c #FED69C",
",. c #FCC4A4",
"<. c #FDC7A9",
"1. c #FCCBAE",
"2. c #FDD8A2",
"3. c #FCCBB2",
"4. c #F2C7BD",
"5. c #F6CDB9",
"6. c #FCD4B6",
"7. c #F4DAB7",
"8. c #FBDCB4",
"9. c #FCD2BB",
"0. c #F8DEBC",
"q. c #C1C1C1",
"w. c #CEC4C2",
"e. c #CECECE",
"r. c #DCC5C5",
"t. c #D2D1CF",
"y. c #D5D5D4",
"u. c #D8D7D5",
"i. c #D9D9D7",
"p. c #DCDCDB",
"a. c #E6C5C4",
"s. c #E9C4C4",
"d. c #E5CDCB",
"f. c #EDCCCC",
"g. c #F0CCCC",
"h. c #E7D1CE",
"j. c #F8D6C4",
"k. c #F8D9C7",
"l. c #F7D6C8",
"z. c #F6DCCD",
"x. c #FADBCB",
"c. c #EAD3D2",
"v. c #E2D9D6",
"b. c #EBD9D3",
"n. c #E0DFDD",
"m. c #EBDCDA",
"M. c #F2D5D5",
"N. c #F9DED1",
"B. c #F3DBDB",
"V. c #EFE0CD",
"C. c #F7E4CE",
"Z. c #F9E3C8",
"A. c #FAE5CD",
"S. c #E1E1DF",
"D. c #EAE2DF",
"F. c #F7E1D6",
"G. c #F9E1D6",
"H. c #FAE9D4",
"J. c #F5E5DD",
"K. c #FBE6DB",
"L. c #F6EADA",
"P. c #F8EADC",
"I. c #DFDFE0",
"U. c #E4E4E4",
"Y. c #EBE5E3",
"T. c #EAE8E6",
"R. c #ECECEC",
"E. c #F3E5E3",
"W. c #F4EEE6",
"Q. c #F1EEED",
"!. c #FBEFEC",
"~. c #FEF2E4",
"^. c #F2F0EE",
"/. c #FBF3ED",
"(. c #F4F4F4",
"). c #F8F6F5",
"_. c #FAF9F6",
"`. c #F8F8F8",
"'. c #FBFBFB",
"]. c #FCFCFA",
"[. c #FDFDFD",
/* pixels */
"`.`.[.[.[.`.`.`.[.[.`.).(.).`.(.`.).(.^.).).).).(.(.).).(.(.).(.(.(.(.R.R.R.R.(.R.).(.).).`.`.).(.).`.`.`.`.`.`.(.R.R.R.(.(.U.T.",
"`.`.[.[.[.[.`.`.[.[.`.[.`.[.[.[.[.(.^.`._.`.(.(.(.R.(.(.).`.`.).).).).).(.R.(.).R.).`.`.`.(.R.(.).`.[.[.[.[.[.[.).(.).R.R.R.(.(.",
").`.`.[.`.`.).).`.`.[.[.`.[.`.[.`.(.(.(.).Q.).).).(.).).(.(.).`.`.).(.(.(.R.(.).).`.`.`.).(.R.).`.[.[.`.).`.[.[.).R.T.R.U.R.(.(.",
"`.).(.(.(.(.`.).`.).`.`.`.[.[.`.(.R.^.R.R.R.).).(.(.(.R.R.(.(.).`.`.`.).(.R.(.(.(.^.(.`.`.).`.[.[.`.`.).).).`.(.T.T.R.R.T.R.(.(.",
"`.).(.(.`.`.[.`.[.).[.).(.`.`.`.(.(.(.U.(.R.^.(.R.(.(.R.(.).(.^.(.).(.(.(.R.(.).T.R.).`.`.`.[.[.`.`.).(.(.(.R.R.R.R.R.R.R.R.(.R.",
").).).).).`.[.`.`.(.).(.T.R.).`.R.^.(.p.Q.R.R.S.R.R.(.R.(.).(.).).).).).).(.(.(.(.R.(.`.[.[.[.[.`.).(.(.R.(.`.`.(.R.T.(.(.).`.(.",
").`.`.[.[.[.[.`.).`.`.].^.U.T.(.R.^.Q.^.^.(.R.R.R.R.^.(.(.(.).U.U.).`.).).).).(.R.(.`.`.[.[.[.`.(.R.(.).).`.`.).^.(.).(.).).(.(.",
").`.`.[.[.[.[.`.).`.[.`.(.p.p.U.i.T.Q.^.T.T.R.(.(.(.(.(.(.(.i.R.(.).`.).).).).).`.`.[.[.[.[.`.(.(.(.).).(.R.(.).^.i.R.^.R.R.R.R.",
"[.[.[.[.[.`.`.`.`.`.`.R.^.U.U.y.p.i.p.U.i.i.U.R.R.(.(.(.i.R.Q 1 + W R.).).).`.P.>._.[.[.[.(.(.).`.R.R.).).`.`.`.R.T.T.U.i.y.i.i.",
"[.[.[.[.[.[.[.[.[.[.).R.).R.p.S.i.p.p.i.^.(.U.R.^.^.).I.R.e.# y =   < i.(.).(.>.8.`.[.(.(.R.U.I.T.(.`.`.`.[.[.`.(.R.R.R.U.T.R.R.",
"[.`.`.`.`.`.`.`.).).R.^.).R.R.).U.R.T.S.R.(.p.T.2.2.).(.p.- I | Z     O W R.R.H.Z.R.R.U.T.T.p.U.(.`.).).).).).`.(.U.R.R.R.T.R.R.",
"[.[.[.[.[.[.[.`.).`.`.[.[.[.`.`.(.(.).(.R.R.(.).H.:./.).U.w P | | N @     Q U.T.R.(.(.(.R.R.^.^.(.`.[.`.`.).).`.)._.).(.(.).).).",
"[.[.[.[.[.[.[.`.`.`.[.[.[.`.`.).).).`.`.`.`.`.[./.A.~.`.R.i K D | Z K X   e.(.(.R.R.T.(.).(.^.R.).`.[.`.[.[.[.[.].].).(.).`.`.).",
"[.[.[.[.[.`.`.).).).`.`.`.).).`.`.`.`.[.[.[.[.`.`.).R.).R.u I V U B | * . ~ R.(.(.R.(.).(.(.(.(.).`.`.[.`.`.[.[.`._.R.(.).^.R.).",
"`.`.`.`.`.`.`.`.`.).).(.R.(.`.[.`.[.[.[.[.[.[.`.).T.R.q.Q , | U ..| I       O ! ^.(.(.(.(.`.).).).`.`.`.[.`.[.[.`.(.).^.T.Q.R.).",
"[.[.[.`.`.`.`.`.`.`.).(.`.[.[.[.`.[.[.[.[.[.`.(.p.p.p.O   o I X.%.' Z         ~ (.`.`.`.`.).).(.).`.).`.).R.`.`._.R.^.(.U.Q.R.R.",
"[.[.[.[.`.`.`.`.`.).).).[.`.`.`.`.[.[.[.`.`.).i.y.p.y.O     : A U Z =       1 (.).).).).).).(.(.(.`.).).).R.R.).`.(.R.(.T.R.(.R.",
"[.[.[.`.`.`.).).).).`.[.[.[.[.[.`.[.[.[.`.`.).T.U.U.p.> $ % & C P p % X     < (.).).).(.R.R.R.R.(.(.[.`.[.(.p.U.R.U.R.(.R.R.R.R.",
"[.`.).).).).`.).`.`.[.[.[.[.[.[.`.[.[.[.`.).R.p.R.T.e.; s s 8 F | l 9 s 7 X   q.(.(.).(.(.(.R.R.(.).`.`.).(.T.U.i.S.i.R.R.p.p.R.",
").).`.`.[.[.[.[.[.[.[.[.[.[.[.[.`.`.`.`.`.(.(.U.^.(.m.d s s 9 G | l s s s 6 2 y.R.(.(.(.).(.R.R.).`.`.`.^.(.R.U.y.y.i.i.S.T.T.I.",
"[.[.[.[.[.[.[.[.[.[.[.[.[.[.`.[.`.[.`.`.).(.R.(.(.Y.v s s s a L | z s s s d a.T.p.T.(.(.(.(.(.R.(.`.(.R.R.).(.T.R.p.T.S.i.R.).U.",
"`.`.`.`.`.`.(.(.(.).).).(.(.).).(.(.(.R.R.R.R.(.Q./ s s h s s } | m s d s s j m.R.R.R.).).).).(.`.`.).(.).`.).(.(.U.R.R.R.R.R.U.",
").`.`.).`.).(.(.(.(.(.).).`.).(.(.).).(.(.R.(.(.s.s s h ] s d b.5.[ s h ` s s @.`.`.[.[.[.[.[.[.[.`.`.`.`.`._.`.).(.R.(.(.(.R.R.",
"`.`.`.[.`.).).(.).(.(.).(.`.`.`.`.).).).(.R.).(.M s s =.) 9 g D.D._ 0 a g.s s h Q.`.[.[.[.[.[.[.`.).`.`.[.[.[.`.(.).R.T.U.R.).).",
"`.R.R.`.).(.`.(.).(.(.R.R.^.).`.`.`.).).R.).R.b.s s M ).#.3 t w.w.^ 3 f ).] s s f.[.[.[.[.`.`.`.).).).).).).(.).(.R.R.T.T.R.(.`.",
"T.R.(.(.`.`.`.(.(.(.(.R.(.(.(.(.).).).).R.(.).#.s s B.[.M.9 S v.v.{ 8 _ ).B.d s [ [.`.[.`.`.`.`.[.`.`.).(.(.).`.).T.R.T.T.R.R.R.",
"y.T.(.).`.`.`.(.R.(.(.(.(.).(.).(.(.).).(.(.d.e 8 [ [.[.!.d ] D.D.%.s f.).`.] a g Q.`.[.`.[.).`.`.).).).(.`.`.`.(.R.T.R.R.^.).(.",
"T.U.R.R.R.R.`.(.R.^.^.(.).).).).).`.`.).).).b 3 4 ( [.[.M.s #.D.D.&.s a.R.R.+.3 3 ) `.[.[.`.).[.`.`.`.).`.`.`.[.).`.(.).).).(.).",
"T.R.(.R.U.R.).(.(.(.R.R.(.(.).).).`.).).).`.c 3 4 Q.[.[.` s &.D.D.*.s ] R.T.r.4 5 r `.`.).).`.).(.).`.[.[.[.[.[.).U.^.(.R.^.^.(.",
"R.(.R.R.R.`.[.).(.^.(.(.).`.).).).`.).).).).<.H E.[.`.B.s s a.D.D.a.s d Y.^.).+.k ' ).).).`.`.`.[.[.[.[.[.[.[.[.(.U.R.R.U.i.i.i.",
").).R.R.).[.[.).(.(.(.(.(.).).).).`.).).).).;...`.`.`.[ s s h.D.D.a.s s c.`.[._.| 3.`.`.[.[.[.[.[.[.[.[.[.[.[.[.(.R.R.T.p.I.T.T.",
"R.R.R.R.).`.`.(.).(.^.R.^.^.^.R.R.(.(.(.(.(.O.,.).`.).j s s m.D.D.d.s s s.).`._. .3.`.`.`.`.`.`.`.`.`.`.`.`.`.`.^.U.T.T.T.T.R.R.",
"`.`.).`.`.`.`.`.`.`.).`.`.`.`.(.R.T.R.(.R.U...3.R.R.m.d s j Y.D.D.c.s s =.(.(.`.O.3.(.(.(.).).(.(.(.(.(.(.(.(.(.(.R.R.(.R.R.R.R.",
"[.[.[.[.[.[.`.[.).`.`.[.[.`.`.).).(.R.R.R.(. . .j.R.*.s s n D.D.D.b.s s $.[.[.!.O.6.(.).`.).(.(.(.(.R.R.(.).`.`.`.`.).).).(.(.R.",
"`.`.`.`.[.`.`.).).`.`.`.`.`.).).R.T.T.T.R.)...| ..R.R.&.] @.D.D.D.m.j n f.`./.| | 9.(._.(.).R.`.).(.).).(.R.(.).`.`.`.).).(.R.R.",
"[.[.[.[.`.`.`.).`.`.).).(.(.).(.R.R.T.T.R.^.F.O.,.R.T.D.D.D.D.D.D.D.Y.D.^.[.K.| | x.R.^.R.R.(.`.(.(.(.(.R.R.(.R.(.).`.).).(.R.(.",
"`.`.`.`.`.`.[.`.`.).(.(.).[.`.).T.R.R.R.R.(.(.(.(.`.Q.D.D.D.D.D.D.D.D.D.R.(.`.x.P.R.(.R.T.(.R.(.(.(.(.(.(.(.).).(.).).).(.(.R.(.",
"[.[.[.[.`.).`.`.).).(.(.).`.[.(.R.R.(.(.).).(.(.).`.Y.D.D.D.D.D.D.D.D.D.T.T.).`.`.R.^.R.S.(.R.R.T.(.^.(.(.(.(.).).).).).).).(.^.",
"[.[.[.[.`.`.`.).`.`.[.[.[.`.[.`.).).(.).).).(.(.).).Y.D.D.D.D.D.D.D.D.D.Q.R.U.R.^.R.(.^.Q.R.(.R.R.T.R.^.^.(.(.).).).).`.`.`.).).",
"`.`.`.).).).).).).`.`.[.[.[.[.(.i.R.(.R.R.R.R.^.).).Y.D.D.D.D.D.D.D.D.D.T.R.p.U.p.p.R.R.R.R.R.R.(.(.(.^.^.(.).).`.`.`.).).).`.`.",
").).`.`.`.`.`.`.[.[.[.[.[.[.`.(.T.R.U.i.y.i.i.R.(.(.D.D.D.D.D.D.D.D.D.D.Y.R.U.p.y.p.i.U.U.i.i.U.(.(.(.).).(.).).).).`.`.).).).).",
"`.[.[.[.[.[.[.[.[.[.[.[.[.[.[.(.R.R.R.U.T.R.R.p.R.Q.D.D.D.D.D.D.D.D.D.D.Y.`.R.U.p.U.i.i.p.(.(.p.R.`.).(.(.(.(.(.(.(.(.`.).).).).",
"`.).).).).).`.`.`.`.`.).).).`.(.T.R.(.R.R.^.R.T.i.T.D.D.D.D.D.D.D.D.D.D.Y.(.R.R.R.T.(.R.T.(.(.p.R.).).(.(.(.(.(.(.(.).(.).(.R.(.",
"(.R.R.(.R.R.R.^.(.(.(.R.R.R.(.`.`.`.`.).`.`.).(.(.R.4.b.D.D.D.D.D.D.D.D.Y.R.^.(.(.).).`.`.`.).).(.).`.`.`.`.`.`.`.`.`.`.`.).).).",
"R.R.).).(.(.(.(.).).`.`.`.`.`.[.`.`.[.`.`.`.).).(.Q.| U 3.).(.(.(.E.o.o.l.R.(.(.(.`.[.`.).(.R.(.`.`.[.`.`.`.[.[.`.`.[.[.[.`.[.[.",
"(.(.).(.(.(.).).`.`.`.[.[.[.[.`.`.).R.`.`.).).).).^.| | 5.(.).`.`./.| | k.R.^.(.).).).`.`.(.(.`.[.[.[.`.).`.`.[.).`.`.`.[.`.[.].",
"R.R.(.(.).).).).[.[.[.[.[.[.`.).).T.R.R.).).).).(.Q.| | j.(.R.R.).).| | k.R.(.(.R.R.).`.).).`.`.[.[.`.).(.).`.R.R.`.`.`.`.`.].[.",
").`.`.`.`.).).(.[.[.[.[.[.[.`.R.i.U.^.(.).`.`.`.(.(. .| j.).(.(.(.(...| k.(.(.).R.(.`.`.`.[.[.[.[.`.`.(.(.(.(.).`.`.).).`.R.(.`.",
"`.).).(.(.(.(.(.`.[.[.`.`.[.(.y.i.U.R.(.(.R.).).R.R.O.| z.).).).).).;.| x.).(.(.(.T.R.`.[.[.[.[.`.).R.(.(.).`.[.).`.).(.`.R.T.(.",
").).).R.R.R.R.(.`.[.[.[.`.`.).U.U.U.R.R.R.p.(.(.R.R.,.| N.).).).).).<.| x.).).(.(.).[.[.[.[.`.).R.R.(.`.`.).).(.(.).`.`.[.`.S.p.",
"(.).).(.(.R.R.(.[.[.[.[.`.(.R.U.R.R.(.R.T.R.`.`.(.(.1.| F.).).`.`.`.3.| N.`.).).`.`.[.`.[.[.).(.).).).(.R.^.).`.`.).`.`.).(.T.S.",
"(.).).(.R.^.R.^.[.[.`.`.`.).(.T.(.).(.R.^.`.[.`.(.).9.| J.).).`.).).9.| G.).).).).[.[.`.`.R.(.`.(.R.R.`.`.[.[.[.`.`.[.[.(.(.R.T.",
"T.).^.^.(.(.R.^.`.`.`.`.).(.^.(.(.(.R.R.).[.[.`.).).j.| J.(.(.(.(.).x.| K.).).).).`.).R.R.T.y.y.R.).`.`.`.`.[.[.`.`.`.(.R.(.).U.",
"R.R.(.^.(.).(.(.).`.`.).).(.).(.).^.(.(.(.).).).(.).N.| J.(.).).R.R.z.| J.R.T.(.R.(.R.T.R.R.R.R.(.).).(.(.(.(.).`.).).(.(.`.).R.",
").`.`.`.).(.(.(.`.`.[.`.`.`.`.).`.[.[.[.`.`.`.`.).E.z.| Z.A.A.C.C.L.z.| m.R.R.T.R.^.R.(.R.R.R.R.(.(.(.(.(.(.(.).`.`.`.`.).`.`.).",
"`.`.`.).(.R.(.`.`.`.`.`.`.`.`.).`.[.[.[.`.`./.6.f q x F T E E E E E Y x 3 { L.(.(.R.R.).).(.(.(.).`.`.`.`.`.[.[.`.`.`.`.[.`.`.).",
"(.).`.).).).`.[.[.[.`.).`.`.`.(.`.`.`.`.[.`.~.:.E E E E E E E E E E E T J -.H.(.^.R.R.(.(.(.(.).).`.[.[.[.[.[.`.`.`.).T.(.`.).).",
"R.).`.`.`.[.[.[.`.`.).(.(.).R.).`.).`.`.).].].`.W.L.A.7.0.8.8.8.7.0.Z.V.D.R.R.^.(.(.(.).`.`.).(.).[.`.`.`.`.[.[.`.R.U.R.(.).).`.",
"(.(.`.`.[.[.`.`.).).(.R.(.).`.).`.).).`.R.(.`._.^.R.(.S.T.^.R.U.T.U.R.(.R.).(.R.(.).`.`.`.).(.(.).`.`.`.`.`.[.).T.y.p.R.(.).).`.",
"T.(.[.[.[.`.`.`.(.(.(.).`.`.`.).`.`.).`.(.T.R.(.(.^.(.^.R.(.R.T.(.(.(.).).).).).).`.`.).^.R.(.(.(.`.`.`.`.`.`.(.y.p.U.R.R.R.R.).",
"`.[.[.[.[.[.(.R.R.(.`.(.R.(.).`.).`.`.`.`.U.p.T.p.T.(.^.R.R.Q.^.U.T.(.^.R.(.(.(.).).`.(.^.R.R.R.(.[.`.`.`.[.`.).U.T.U.^.R.T.U.(.",
"`.[.[.[.).(.).`.).R.).(.).).`.`.`.[.`.).R.T.T.i.S.u.S.T.p.y.S.R.p.T.R.T.i.y.y.R.(.).(.(.).(.R.R.(.[.[.`.`.`.(.R.p.R.R.).R.R.(.`.",
"[.[.`.).(.(.(.R.R.(.`.`.[.[.`.).`.]._.^.(.^.U.u.t.p.u.p.R.(.U.U.T.^.R.U.U.U.R.U.R.R.).(.(.(.R.R.(.`.`.`.`.).(.(.R.(.).(.R.(.`.[.",
").R.U.p.U.e.i.(.`.`.[.[.[.[.[.`.`.(.Q.R.(.(.T.(.U.R.R.n.U._.U.i.S.U.R.T.T.R.(.T.i.p.R.(.(.(.(.R.(.`.`.`.`.).(.(.(.R.T.T.R.`.[.[."
};
