/* XPM */
static char *_c5b91aedf9243e8b027c0ec85dc3a3fU5xeeOsfhyILfCT3[] = {
/* columns rows colors chars-per-pixel */
"64 64 197 2 ",
"   c #2C3733",
".  c #393D38",
"X  c #45423D",
"o  c #49443B",
"O  c #51463F",
"+  c #624C3C",
"@  c #6A4C3F",
"#  c #74513D",
"$  c #404644",
"%  c #665143",
"&  c #785845",
"*  c #74574A",
"=  c #7B5C4A",
"-  c #79644E",
";  c #6E6E58",
":  c #7A6350",
">  c #746B57",
",  c #736E59",
"<  c #76725B",
"1  c #7A765D",
"2  c #7C785E",
"3  c #787667",
"4  c #7C7860",
"5  c #8B4B35",
"6  c #924D35",
"7  c #9B4E34",
"8  c #8B513D",
"9  c #975135",
"0  c #9F5236",
"q  c #A55738",
"w  c #AA5B3C",
"e  c #B35E3B",
"r  c #AE603E",
"t  c #B4623F",
"y  c #BA633D",
"u  c #C1633D",
"i  c #8C5B42",
"p  c #9C5B45",
"a  c #A15C40",
"s  c #AD5F41",
"d  c #926347",
"f  c #926248",
"g  c #836754",
"h  c #85755B",
"j  c #967155",
"k  c #AE6143",
"l  c #AA654E",
"z  c #B46341",
"x  c #BC6642",
"c  c #BB694B",
"v  c #AB6E59",
"b  c #B06F5E",
"n  c #AB7359",
"m  c #BA7153",
"M  c #BD7259",
"N  c #877C62",
"B  c #8C7B74",
"V  c #A27867",
"C  c #B97C66",
"Z  c #A07D76",
"A  c #C36742",
"S  c #C66B43",
"D  c #C86C44",
"F  c #C56D49",
"G  c #D3664F",
"H  c #C9724D",
"J  c #CD6950",
"K  c #D56950",
"L  c #C97854",
"P  c #E56C4C",
"I  c #E87656",
"U  c #CF7B62",
"Y  c #8D8164",
"T  c #85816C",
"R  c #928366",
"E  c #91846A",
"W  c #9B896A",
"Q  c #8A8678",
"!  c #978C77",
"~  c #A28D6C",
"^  c #A5857D",
"/  c #B88271",
"(  c #BA8B72",
")  c #AA9375",
"_  c #AC9876",
"`  c #A8957B",
"'  c #AE9A79",
"]  c #B2977A",
"[  c #D1866F",
"{  c #C98D74",
"}  c #D89C7D",
"|  c #E58869",
" . c #F08561",
".. c #F18C6D",
"X. c #E89A79",
"o. c #F29876",
"O. c #EFA07D",
"+. c #928F83",
"@. c #929184",
"#. c #989886",
"$. c #9D9B92",
"%. c #AF8A80",
"&. c #A29585",
"*. c #A99582",
"=. c #B6988D",
"-. c #A19E97",
";. c #B7A085",
":. c #BCA381",
">. c #ABA495",
",. c #B4AA97",
"<. c #BCAB94",
"1. c #BDB69E",
"2. c #AAAAA7",
"3. c #B8ABA5",
"4. c #B6B4AB",
"5. c #BDB0AD",
"6. c #B9BAB4",
"7. c #C99784",
"8. c #C89D92",
"9. c #E99785",
"0. c #C6A983",
"q. c #C3AB87",
"w. c #CBAE8A",
"e. c #D6AB8A",
"r. c #CCB18C",
"t. c #D3B68E",
"y. c #CBA89E",
"u. c #D0A990",
"i. c #D4B691",
"p. c #D5BA94",
"a. c #DABB95",
"s. c #D2BC9D",
"d. c #DCBE99",
"f. c #EDA789",
"g. c #F6AA88",
"h. c #FCB28E",
"j. c #F0AA98",
"k. c #FEB692",
"l. c #FFB994",
"z. c #C6AFAB",
"x. c #CEBFA1",
"c. c #D1BEA5",
"v. c #D5BDB7",
"b. c #EBAFA5",
"n. c #F6BDA3",
"m. c #E3BFBB",
"M. c #F1BCB4",
"N. c #DDC09D",
"B. c #D5C7AE",
"V. c #C3C3BD",
"C. c #D6CBB5",
"Z. c #D8C8BD",
"A. c #D8D0BB",
"S. c #F6CCBB",
"D. c #C5C5C2",
"F. c #C8C8C4",
"G. c #CBCAC6",
"H. c #CECDCB",
"J. c #DAC6C2",
"K. c #D4CDC2",
"L. c #D5CFCC",
"P. c #DBD4C7",
"I. c #D3D1CF",
"U. c #DCD5CC",
"Y. c #D5D5D4",
"T. c #D8D7D5",
"R. c #DAD9D6",
"E. c #DCDCDB",
"W. c #ECCEC3",
"Q. c #F3D3CA",
"!. c #E0DCD2",
"~. c #E3DEDC",
"^. c #F3D9D2",
"/. c #DFE0DE",
"(. c #E5E1D1",
"). c #E1E0DE",
"_. c #E8E7DF",
"`. c #E4E4E3",
"'. c #E8E7E4",
"]. c #E9E9E6",
"[. c #ECECEC",
"{. c #F6E7E4",
"}. c #F1EEEC",
"|. c #F1F1EF",
" X c #F3F3F3",
".X c #F4F3F2",
"XX c #F5F5F4",
"oX c #F6F6F6",
"OX c #F7F7F6",
"+X c gray97",
"@X c #F9F6F4",
"#X c #F8F8F7",
"$X c #F8F8F8",
"%X c #FBFBFA",
"&X c #FBFBFB",
"*X c gray99",
"=X c #FDFDFD",
/* pixels */
"$X$X=X=X$X$X$X$X=X=X$XoX XoXoX X$XoXoX|.oXoXoX X X XoXoXoXoXoXoX X X X[.[.[.[. X[.oX XoXoX$X$XoX XoX$X$X$X$X$X$X X[.[.[. X X`.'.",
"$X$X=X=X$X=X$X$X=X=X$X=X$X=X=X=X=XoX X$X#X$X X X X[. X XoX$X X[.E.[.oXoX X[. XoX[.oX$X$X$X X[.[.oX$X=X=X=X=X=X=X$X XoX[.[.[. X X",
"oX$X$X=X$X$XoXoX$X$X=X=X$X=X$X=X#X.XoXoXoX}.oXoXoX XoXoXE.B * & * O D. X X[. XoXoX$X$X$XoX X[.oX$X=X=X$XoX$X=X=X$X[.[.[.'.[. X X",
"$XoX X X X X$XoX$XoX$X$X=X=X=X$X X[.|.[.[.[.oXoX X X XI.g = * = V ] [.oX X[. X X X XoX=X$XoX$X=X=X$X$XoX XoX$X X].'. X[.'.[. X X",
"oX X XoX=X=X=X$X=XoX=X X X$X$X$X|.oX.X`. X[.|. X[. XoX2.o X . ( h.k.}. X X[. X X'.[.oX$X$X$X=X=X=X$X$X X X X[.[.[.[.[.[.[.[. X[.",
"oXoXoXoX$X$X=X$X$XoXoXoX'.[.oX$X[.|.oXE.}.[.[.`.|. X X2.  . X ( } { {.oXoX X X XoX[. X$X$X=X=X=X$XoXoX X[. X$X$X X[.[. X XoX$XoX",
"oX$X$X=X=X=X=X$XoX$X$X$X|.`.]. X[.|.}.|.|..X[.[.[.[. XE.$ v [ f.k.g.S.oXoXoXoX X[. X$X=X=X=X=X$XoX[. XoXoX$X$XoX X XoX X XoXoX X",
"$X$X$X=X=X=X=X$X$X$X=X$X|.E.E.`.R.].}.|.'.].[. XoX X X XD.@ o.k.k.k.S.oXoXoXoXoX$X$X=X=X=X=X$X X X XoXoX X[. XoX XE.[. X[.[.[.[.",
"=X=X=X=X=X$X$X$X$X$X$X[.|.`.`.Y.E.R.E.`.T.R.`.[.[. X X X X=.o.h.k.k.^.oXoXoX$XoX$X=X=X=X=X X XoX$X X[.oXoX$X$X$X X`.'.`.E.Y.E.Y.",
"=X=X=X=X=X=X=X=X$X=XoX[.oX[.E.).E.E.E.R. XoX`.[. XoXoX X Xn.k.g.9.S.{.oXoXoX X$X$X$X=X X X[.`.`.'. X$X$X$X=X=X$X X[.[.[.`.'.[.[.",
"=X$X$X$X$X$X$X$XoXoX[.|.oX[.[.oX`.[.].`.[. XE.'. XoXoXoXJ.h.k.k.W.[. XoX X X[.oX X X[.`.`.'.E.'.oX$XoXoXoXoXoX$X X`.[.[.[.'.[.[.",
"=X=X=X=X=X=X=X$XoX$X$X=X=X=X$X#X X XoX.X[.[.oXoXoX$X Xy.A L X.g.Z.[.[.oX X[.'.[.[. X X|.[.[. X X X$X=X$X$XoXoX$XoX#XoX X.XoXoXoX",
"=X=X=X=X=X=X=X$X$X$X=X=X=X$X$XoXoXoX$X$X$X$X=X=X=XoX7.D S S A S S v.[.'.[. X X X[.[.'. XoX X X[.oX$X=X$X=X=X=X=X$X$X#X.XoX$X$XoX",
"=X=X=X=X=X$X$XoXoXoX$X$X$XoXoX$X$X$X$X=X=X=X=X$X$Xy.A D D D D D S D J.[.'. X$X X X[. XoX X X XoXoX$X$X=X$X$X=X=X$X$X}.oXoX.X[.oX",
"$X$X$X$X$X$X$X$X$XoXoX X[. X$X=X$X=X=X=X=X=X=X$X[.x S A D D D S S D 8.`.].[. X|. X X X X X$XoXoXoX$X$X$X=X$X=X=X$XoXoX|.'.}.[. X",
"=X=X=X$X$X$X$X$X$X$XoX X$X=X=X=X$X=X=X=X=X=X$X X5.A S D A D S S S S / [.[. XoX[. X$X$X$X$XoXoX XoX$XoX$XoX[.oX$X#X[.|.oX`.[.[.[.",
"=X=X=X=X$X$X$X$X$XoXoXoX=X$X=X=X$X=X=X=X$X$XoXE.^ S S D x S S D D S w [. X$X XoXoXoXoXoXoXoX X X X$XoXoXoX[.[.oX$XoX[.oX'.]. X[.",
"=X=X=X$X$X$XoXoXoXoX$X=X=X=X=X$X$X=X=X=X$X$XoX`.l A S D k S S S D D z J.oX X XoXoXoXoXoX[.[.[.[. X X=X=X=XoXE.`.[.`.[.oX[.[.[.[.",
"=X$XoXoXoX$X$XoX$X$X=X=X=X=X=X$X$X=X=X=X$XoX[.F.z S D L 9 S S S S D z 8.`.`.E.[. XoXoXoX X X[.[. XoX=X$XoX X'.`.E.`.E.[.[.E.E.'.",
"oXoX$X$X=X=X=X=X=X=X=X=X=X=X=X$X$X$X$X$X$X X X3.y D H r q D S S S D x F H.E.E.`.[.oXoXoXoX X[.[. X$X=X$X|. X[.`.Y.Y.E.R.).'.'.`.",
"=X=X=X=X=X=X=X=X=X=X=X=X=X=X=X$X$X=X$X$XoX X[.%.x H F 6 e D S D S D z e 8.[.[.'.`.'. X X X X X[. X$XoX[.[.oX X'.[.E.'.E.E.].oX'.",
"$X$X$X$X$XoX X X XoXoX X X XoXoX X X X[.[.[.'.k A x q 5 t D S S S D z u x v. X[.[.[.[.oXoXoXoXoX$X$XoXoXoX$XoX X X`.[.[.[.[.[.`.",
"oX$X$X$X$XoX X X X X XoXoX$XoX X XoXoX.X X[.I.p e e 5 6 r S S S S S z q x A ~. X$X$X=X$X=X=X=X=X=X$X$X$X$X$X$X$XoX X[. X X X[.[.",
"$X$X$X=X$XoXoXoXoX X XoX X$X=X$X$XoXoXoX X[.L.m y x s 5 q S S S S S t 7 z F { }.$X=X=X=X=X=X=X=X$XoX$X$X=X=X=X$X XoX[.'.`.[.oXoX",
"$X[.[.$XoX X$XoXoX X X[.[.|.oX$X$X$XoXoX[.oX[.Z z A x 5 7 x D D D S C 5.8 w O.n..X=X=X=X=X$X$X$XoXoXoXoXoXoX XoX X[.[.'.'.[.oX$X",
"'.[. XoX$X$X$XoX XoX X[.oX X X XoXoXoXoX[. XoXL.p k A c 7 0 A S S S C  X`.y.o.h.n.@X$X=X$X$X$X$X=X$X$XoX X XoX$XoX'.[.'.'.[.[.[.",
"Y.'. XoX$X$X=X X[. X X X XoX XoXoXoXoXoX X X X XL.k | k.M 7 w S S S C  XoX$X{.j.g.k.Q.@X$X=XoX$X$XoXoXoX XoX$X=XoX[.'.[.[.[.oX X",
"'.`.[.[.[.[.$X X[. X|. XoXoXoXoXoX$X$XoXoXoXoX XoXz.| l.h.c w 9 0 s v [.[.[. X$XQ.....f.{.$XoX=X$X$X$XoX$X=X=X=XoX$XoXoXoX$X XoX",
"'.[. X[.`.[.oX X X X[. X XoXoXoXoX$X$XoXoX$XoXoX$XT.8 X.l.O.z z k a V  X[.'.[.oX$XM.I P 9.$X$XoXoXoXoX=X=X=X=X=XoX`.|. X[. X X X",
"[.oX[.[.[.$X=XoX[. XoX XoX$XoXoXoX$XoXoXoXoX$XoX$X X- : X.l.e.:.] j 3.[.[.}.$X=X$XoXb.I ..{.$X$X=X=X=X=X=X=X=X=X X/.[.[.`.E.E.E.",
"oXoX[.[.oX=X=X X X X X XoXoXoXoXoX$XoXoXoXoXoXoX$X$XQ N h f.e.a.i.r.U.[.[.$X=X=XoX$X}.Q.oX=X=X=X=X=X=X=X=X=X=X=X X[.[.'.E.E.'.[.",
"[.[.[.[.oX$X$X XoXoX X[. X X X[.[. XoX X X XoXoXoX$X2.Y N M w.a.w.w.K.'.[.oX$X$XoX$X$X$X$X$X$X$X$X$X$X$X$X$X$X$X XE.'.'.'.'.[.[.",
"$X$XoX$X$X$X$X$X$XoXoX$X$X$X$X X[.'.[. X[.`.'.[.[.[.D.Y Y ) a.t.0.~ ).oXoX.X.XoX X$X.X X XoXoX X X X X X X X X X X X[. X[.[.[.[.",
"=X=X=X=X=X=X=X=XoX$X$X=X=X$X$XoXoX X[.[.[. X[.[.[.[.D.E R r.i.a.i.' |.$X=X=X=X=X$X=X.XoX$XoXoX X X X[.[. XoX$X$X$X$XoXoXoX X X[.",
"$X=X$X$X=X$X$X$XoX$X$X$X$X$XoXoX[.[.'.'.[.oXoX XoX|.4.< Y ;.p.d.a.a.'.$X$X$X=X$X$XoX.X#XoXoX[.$XoX XoXoX X X XoX$X$X$XoXoX X[.[.",
"=X=X=X=X$X$X$XoX$X$XoXoXoX[.oX X[.[.[.'.[.|.oX[.[.[.@.< N R i.p.d.d.P.$X$X=X=X$X$XoX[.|.[.[. X$XoX X X X[.[. X[.oXoX$XoXoX X[. X",
"$X$X$X$X$X$X=X$X$XoX X XoX=X$XoX'.[.[.[.[. X XoX X X1 1 , R ' p.d.d.c.$X X X=X$XoX[.oX[.]. X[. X X X X X X XoXoX XoXoXoXoX X[. X",
"=X=X=X=X$XoX$X$XoXoX X XoX$X=X X[.[. X XoXoX X XoXY.2 1 ; N Y t.a.d.p.[.[.'.oX$X$X].|.[.). X[.[.`. X[. X X XoXoXoXoXoXoXoXoXoX X",
"=X=X=X=X$X$X$X$X$X$X=X=X=X$X=X$XoXoX XoXoX XoXoXoX6.1 1 4 < R _ p.d.d.!.=X[.'.[.|.[.oX|.}.[. X[.[.'.[. X X XoXoXoXoXoX$X$X$XoXoX",
"$X$X$XoXoXoXoXoXoX$X$X=X=X=X=X[.E.[. X[.[.[.[. XoX@.1 < 2 1 h R r.d.d.B.$X[.`.`.E.E.[.}.[.[.[.[. X X X X X XoXoX$X$X$XoXoXoX$X$X",
"oXoX$X$X=X=X=X=X=X=X=X=X=X=X$X X'.[.`.E.Y.E.E.[.'.4 1 1 1 T 6.R _ p.d.p.'.[.`.E.Y.E.E.`.`.E.E.`. X X XoXoXoXoXoXoXoX$X$XoXoX#X$X",
"$X=X=X=X=X=X=X=X=X=X=X=X=X=X=X X[.[.[.'.'.[.[.E.D.2 < 2 1 V.[.#.R r.N.N.P.$X[.`.E.`.E.E.E.oX XE.[.oXoX X X X X X X XoXoXoXoXoXoX",
"oXoXoX$XoXoX$X$X$X$X$XoXoXoX$X X'.[. X[.[.|.[.`.Q 1 1 2 Q [. XH.R t.d.d.c. X[.[.[.`. X[.`. X XE.[.oXoX X X X X X X XoX XoX X[. X",
" X[. X X[.[.[. X X XoX[.[.[. X$X$X$X$XoX$X$X XD.< , 4 1 Y.oXoX X&.i.w.a.q.`. XoX XoXoX$XoX$XoX X XoX$X$X$X$X$X$X$X$X$X$X$XoXoXoX",
"[.[.oXoX X X X XoXoX$X$X$X$X$X=X$X$X=X$X$X$X XQ < 1 1 $.oX$X$X$XL.r.) t.w.K. X X[.$X=X$XoX X[. X$X$X=X$X$X$X=X=X$X$X=X=X=X$X=X=X",
" X XoX X X XoXoX$X$X$X=X=X=X=X$X$XoX[.$X$XoXD.2 1 2 4 ).[. XoX$XoX*.) 0.d.s.[. XoXoXoX$X$X|.oX$X=X=X=X$XoX$X$X=XoX$X$X$X=X$X=X$X",
"[.[. XoXoXoXoXoX=X=X=X=X=X=X$XoXoX'.[.[.oX XQ 1 1 1 4.[. XoX[.[.oXD.) w.d.d.U. X[.[.oX$X$XoX$X=X=X=X$XoX XoX$X[.[.$X$X$X$X$X$X=X",
"oX$X$X$X$XoXoXoX=X=X=X=X=X=X$X[.E.`. X XoXI.2 < 2 T [.[. XoX XoX X[.` a.p.d.s. X[.[.$X$X$X=X=X=X=X$X$XoX X X XoX$X$XoXoX$X[. X$X",
"oXoXoX X X X XoX$X=X=X$X$X=X XY.E.`.[. X X+.< 2 2 D.|.[. XoXoXoXoXoXF.' r.d.d.U. X'.[.$X=X=X=X=X$XoX X X XoX$X=XoX$XoX X$X[.'.oX",
"oXoXoX[.[.[.[.oX$X=X=X=X$X$XoX`.`.`.[.'.H.1 1 2 +.[.[. X XoXoXoXoXoXoX#.R q.d.s.[.oX=X=X=X=X$XoX[.[. XoX$X$XoX X XoX$X$X=X$X`.E.",
"oXoXoX X X[.[.oX=X=X=X=X$X X[.'.[.[. X[.$.< 2 1 R. X X.X XoXoX$X$X$XoXE.R W a.d.U.$X=X$X=X=XoX XoXoXoX X[.[.oX$X$XoX$X$XoX X].).",
"oXoXoX X[. X[. X=X=X$X$X$XoX X'. XoX XE.; < 2 2. XoX X.XoXoXoX$XoXoX$XoX4.R :.d.s.oX=X=X$X[. X$X X[.[.$X$X$X=X=X$X$X=X=X X[.[.'.",
"[.oX X X X X[. X$X$X$X$XoX X X X X X[.H., 1 < E.oXoX X X X X X X[.oX$XoX[.! R q.r.C.oX[.[.[.Y.Y./.oX$X$X$X=X=X=X$X$X$X X[. XoX`.",
"[.[. X[.oXoX X XoX$X$XoXoX XoX XoX[. Xm.G b V.oX XoX X X|. XoXoX[.[.[. X XF.E ' w.7.'.V.).R.L.(.K.oXoX X XoXoXoX$XoXoX X X$XoX[.",
"oX$X$X$XoXoX XoX$X$X=X$X$X$X$XoX$X=XE.U  .7.[. X$X$X XoXoXoXoX X X XoX X X[.>.&.K g.u.=.*.*.<.A.H. X X X X X XoX$X$X$X$XoX$X$X$X",
"$X$X$XoX X[. X$X=X$X$X$X$X$X$XoX$X$X3 # & > 4. X$X$XoXoX$X XoXoX[.[.[.'.[..X.X.X9...n f f ' C.F.oX$X$X$X$X$X=X=X$X$X$X$X=X=X$XoX",
" XoX$XoXoXoX=X=X=X$X$XoX$X$X$X X$XE.3 % % + >.!.$X[. XoX[.[.oX$X[.[.[.'.'. X$X Xv.J i d <.B.Y.oXoX$X=X=X=X=X=X$X$X$XoX'. X$XoXoX",
"[.oX$XoX$X=X=X=X$X$XoX X XoX[.oX$X XF.#., + g ;.R.|.oX`.[.[.|.oX[.}.[.'.'.[.[. XE.+ g x.C.`.oX XoX=X=X=X=X=X=X=X$X X`.[. XoXoX$X",
" X X$X=X=X=X=X$XoXoX X X XoX$XoX$XoXoX[.6.#.,.A.(.!.oX).].|.[.`.].'.[. X[.oX X[.|.-.1.K. XoX X XoX$X$X$X$X$X=XoX'.Y.E.[. XoX$X$X",
"'. X=X=X=X$X$X$X X X XoX$X$X$XoX$XoXoX$X X`.).]._.].oX}.[..X[.]. XoX XoXoXoXoXoXoX[.`.oX X[. X X X$X$X$X$X$X$X XY.E.`.[.[.[.[.oX",
"=X=X=X=X=X=X X[.[. X$X X[. XoX$XoX$X$X$X$X`.E.].E.].oX|.[.[.}.|.`.]. X X[. X X XoXoX$XoX X[.[.[. X=X=X$X$X=X$XoX`.'.`.[.[.].`. X",
"$X=X=X$XoX XoX$XoX[.oX XoX$X$X$X$X=X$X X[.'.'.R.).T.`.].E.Y.`.[.E.'.[.'.E.Y.Y.[. XoXoXoXoX X[.[. X=X=X$X$X$X X[.E.[.[.oX[.[. X=X",
"=X=X$XoX X X X[.[. XoX$X=X=X$XoX$X$X#X|. X}.`.T.I.E.Y.E.[. X`.`.'.|.[.`./.`.[.`.[. XoX X X X[.[. X$X$X$X$XoX X X[. XoX X[.|.=X=X",
"oX[.`.E.`.H.E. X$X$X=X=X=X=X$X$X$XoX[.[.oX|.]. X).[.[.~.`.#X`.R.).`.[.'.].[. X'.E.E.[. X X X X[. X$X=X$X$XoX X X X[.[.].[.oX=X=X"
};
